/* XPM */
static char *exit64[] = {
/* columns rows colors chars-per-pixel */
"64 64 120 2 ",
"   c #000000",
".  c #090707",
"X  c #070C0C",
"o  c #0B0909",
"O  c #06061E",
"+  c #0A0A1F",
"@  c #0B1111",
"#  c #151F1F",
"$  c #1B1B1B",
"%  c #070921",
"&  c #0E0E22",
"*  c #0D1027",
"=  c #101024",
"-  c #1D1C22",
";  c #151529",
":  c #1A172A",
">  c #1B1A2D",
",  c #1F1F31",
"<  c #261F34",
"1  c #162020",
"2  c #1A2324",
"3  c #1D2031",
"4  c #202325",
"5  c #25222B",
"6  c #2E2F2F",
"7  c #222234",
"8  c #2A2336",
"9  c #2B2B36",
"0  c #2E2438",
"q  c #262838",
"w  c #2B2A3A",
"e  c #3F2F36",
"r  c #332B3D",
"t  c #392B3F",
"y  c #2E3030",
"u  c #34303B",
"i  c #5F453F",
"p  c #362F40",
"a  c #3E2E40",
"s  c #3B3142",
"d  c #3C3B43",
"f  c #131862",
"g  c #1B1F63",
"h  c #232564",
"j  c #252864",
"k  c #452D45",
"l  c #423545",
"z  c #4A3A44",
"x  c #463748",
"c  c #4B364B",
"v  c #4D394C",
"b  c #523C4E",
"n  c #4F3950",
"m  c #553E50",
"M  c #48434C",
"N  c gray29",
"B  c #534047",
"V  c #594141",
"C  c #55404F",
"Z  c #5D444E",
"A  c #514E4E",
"S  c #5F4849",
"D  c #4F4452",
"F  c #554150",
"G  c #555354",
"H  c #62474F",
"J  c #654A4C",
"K  c #6B4D4E",
"L  c #6E5042",
"P  c #735344",
"I  c #72554B",
"U  c #7A564B",
"Y  c #7B594D",
"T  c #654952",
"R  c #6E4F51",
"E  c #765451",
"W  c #7A5751",
"Q  c #7F5A51",
"!  c #7D6958",
"~  c #6E6C64",
"^  c #845C4B",
"/  c #885F4D",
"(  c #845E52",
")  c #8C6451",
"_  c #926852",
"`  c #986D55",
"'  c #AF774F",
"]  c #A57555",
"[  c #AC7A55",
"{  c #B17C54",
"}  c #846B65",
"|  c #847463",
" . c #8B7268",
".. c #8D7F6B",
"X. c #937B6E",
"o. c #BA8256",
"O. c #B5875C",
"+. c #948B76",
"@. c #948479",
"#. c #989074",
"$. c #A1846B",
"%. c #BC9B75",
"&. c #C18D5E",
"*. c #C39063",
"=. c #C89769",
"-. c #C8A276",
";. c #D0A675",
":. c #D6A874",
">. c #9D9A84",
",. c #A29782",
"<. c #A19F87",
"1. c #B09D83",
"2. c #A2A088",
"3. c #B4A388",
"4. c #B9AE92",
"5. c #BAB195",
"6. c #D6C092",
"7. c #DCC796",
"8. c #DFCA99",
"9. c #E0CF9D",
/* pixels */
"N N $   6 4 N N N N N 1 1 1 1   6 4 N N N N N N $   # 2 N N N N N N $   6 4 N N N N N 1 1 1 1   6 4 N N N N N N $   # 2 N N N N ",
"6 6 N   4 6 6 6 6 6 6 6 1 # 1   4 6 6 6 6 6 6 6 N   2 # y y y y 6 6 N   4 6 6 6 6 6 6 6 # 1 1   4 6 6 6 6 6 6 6 N   2 # y y y y ",
"6 6 6   N 6 6 6 6 6 6 6 6 6 #   4 6 6 6 6 6 6 6 N   1 6 y y y y 6 6 6   N 6 6 6 6 6 6 6 6 6 #   - 6 6 6 6 6 6 6 N   1 6 y y y y ",
"6 6 6 . o o 6 o 6 6 6 6 6 6 6   N 6 6 6 6 6 6 6 6   N 6 y y y y 6 6 6 . o o 6 o 6 6 6 6 6 6 6   N 6 6 6 6 6 6 6 6   N y y y y y ",
"6 6 $   N o o o 6 6 6 6 6 6 $   N 6 6 6 6 6 6 6 $   N 6 o y y y 6 6     N o o o 6 6 6 6 6 6 $   N y 6 6 6 6 6 6 $   N y o y y y ",
"6 6 1   N 6 o 6 6 6 6 6 6 6 $   N 6 6 6 6 6 6 6 $   o o y y y y 6 6 @   N y o 6 6 6 6 6 6 6 $   N y 6 6 6 6 6 6 $   o o y y y y ",
"$ 1 1   $ o o y $ 6 $ $ $ $     $ N 6 6 $ 6 $ . . . $ N y y   y   @ @   $ o o 6 $ 6 $ $ $ $     $ N 6 6 $ 6 $ . o . $ N y y $ y ",
"                                                        * = = = = = = =                                                         ",
"N 1 1 1 . 1 N $   6 4 N N N N N N N N $   6   N N l : & = = = = = & = = = = = =   6 - N N N N N N N N $   6 . N N N N N N $   y ",
"6 # # # o 6 6 N   4 6 6 6 6 6 6 6 6 6 N     x b m l ; & = = & = = = = = = = = = = = y y 6 6 6 6 6 6 6 N   . 6 6 6 6 1 # 1 N   - ",
"6 6 6 6 . 6 6 6   N 6 6 6   6 6 6 6 6 #.5.8 x b m l ; = = = = = = = = = = & = = * = = = =   6 6 6 6 6 6   N 6 6 6 6 1 1 y y   N ",
"6 6 6 6 6 6 6 $   N 6 6 6     6 5.5.5.5.5.8 x b m l ; & = = = = = = = = = = = = = = = = = = = = 6   6     N 6 6 6 6 6 6 y $   N ",
"6 6 6 6 y 6 6 $   N y y 6 6 5.: #.5.5.5.4.8 x b b l ; & = = = = = = = = = = = = = = = = = = = = = = 6     N 6 6 6 6 y y y $   N ",
"6 $ 6 $ $ $ $     $ N y G j 5.: #.5.5.#.5.8 b b m l ; & = = = = = = = = = = = = = = = = = = = = = = = =   $ N 6 6 $ 6 $ $     $ ",
"                      O G h h : 5.5.5.4.g t m b b l ; & = = = = & = = = = = = = = = & = = = = & = = = = +                       ",
"N N $   y 4 N N N N * % G f h ; g f f h f t m n n l : & & = = = = = = = = & = = = = = = = = = = = = * = & 3 @ X   6 4 N N N N N ",
"6 6 N   2 6 6 6 y = = & u ~ ~ : M ~ ~ ~ N l b b U z ; & = = = = = = = = = = = = = = = = = = = = = = = = & , 7.@   5 6 6 y y y y ",
"6 6 6   N 6 y @ = = = = w d d * 9 d d d 9 s b b U J = & = = = = = = = = = = = = = = = = = = = = = = = = + 3 7.Y   N 6 6 y y y y ",
"6 6 $   N 6 y = = = = O G f h : f h h j f t m b ( Z = = = = = = = = & = = = & = = = & = = = = & = = = = + 3 7.Q v N y 6 y y y y ",
"6 6 $   N 6 6 = = = = O G j h : g f h f g t b b Q S ; = = = = = = = = = = = = = = = = = = = = = = = = = % , 7.( v 1 @ 6 y y y y ",
"6 6 $   N 6 6 = = = = O G j h ; g j h j g t m c Q J = & = = = = = = = = = = = = = = = = = = = = = & = = + > 7.Q v # @ 6 y y y y ",
"6 6 $   N 6 6 = = = = O G h h > g j h j g t m R ( s ; = = = = & = & = = = = = = = & = = = = = = = = = = & 3 7.Y c N @ 6 y y y y ",
"$ $     $ N 6 = = = = O G h h ; g j h h g p m T ( l ; & = = = = = = = = = = & = = = = = = = = = = = = = + 3 7.( n   N 6 y $ $ $ ",
"              = = = = O G j h : g j h h g t b K Q l ; & = = = = = = = = = = = = = = = = = = & = = = = = + 3 7.Y v               ",
"N N N N N N N = = = = O G j h > g j h j g t b I ( l ; & = = = = = = = = = = = = = = = = = = = = = = = = & : $.B p N N N N $   y ",
"6 6 6 6 6 6 6 = = = = O G j h : g f f f g r b m E x ; & = = = = = & = = = & = = = = = = & = = = = = = = + 3 6.W v 9 6 6 9 N   4 ",
"6 6 6 6 6 6 6 = = = = O A j f : f j h j f k b b b l ; & = = = = = = = = = = = = = = = = = = = = = = = = + 3 7.Q v 6 6 6 y y   N ",
"6 6 6 6 6 6 6 = = = = ; b C b b m b m m b b b C c l ; & = = & = = = = = = = = = & = = = = = = = = = * = + 3 7.Q v 6 6 6 y $   N ",
"6 6 6 6 6 6 6 = = = & & b m F F F F F F C C b b m x ; & = = = = = = = = = & = = = = = = = & & & * + = = + 3 7.Q v 6 6 y y $   N ",
"6 6 6 6 6 6 6 = = = = = < b F C F m F m F F C m m b : & = = = = = = = = & & + & O O = & % % * * = * * * & 3 7.Q v 6 6 y y $   N ",
"6 $ 6         = = = = = = + = = = = = = = = ; = ; = = = = = = = = = = = = 8 0 < e J W X.,.,. . .X.! P J t v 8.U c   y $ $     $ ",
"              = = = = & = = = = = = = = = = & & & & = = & = = = = = = = = 0 t l l Q R  .@.X.} } } W U I n D 8.Q m               ",
"N N $   y $ N = = = = = = = = = = = = = = = = = = = = = = = & = = = = = = : 7 s s s c c k k c k c c l p s D 8.Q c   # 2 N N N N ",
"6 6 N   4 6 6 = = = = = = = = = = = = = & = = = = = = = = = = = & & = + = : q s s s v b b b v b m c s l s d 7.Y n   2 # y y y y ",
"6 6 y   N y 6 = = = = = = = = = = = = = * = = = = = = = + & % & : : : : t x v b l r r t r p s p p w p w 8 w 9.^ n   1 y y y y y ",
"6 6 y       y = = = = = = = = = = = = + = & = * & & & = < 8 8 8 c v v c v v v v v v v b v v x p q 7 , , ; 7 %.S s   N 9 y y y y ",
"6 6 $   N     = = = = = = = + = = = = = = = 5 8 r 8 a U ` _ ) 3.1./ 3.5.4.4.4.4.5.3.$.$.^ ) ^ J H z t 0 < r %.J l   N y . y y y ",
"6 6 1   N y   = = = = = = = = = = = = = = = = > 8 w r l C Z z N r - 9 9 9 9 9 9 9 8 5 5 - : 5 - - : : ; ; > O./ n       y y y y ",
"$ 1 1         = = = = = = = = = = = = = = = & ; * 5 3 7 r c s w = ; & O O + + + & + O & & & & & % & & & & = _ H b     N y y $ y ",
"              = = = = = = = = = = = = = + * = * = > 3 w w w w x r 7 7 = ; = = = = = = = = = = = = = = = & : / b v               ",
"N 1 1 1 o 1 N = = = = = = = = = + = = = & = = = = ; > 7 7 q r r r q w 7 > ; = * + & & & & = & = = = & = & : ) b b N N N N $   y ",
"6 # # # o y 6 = = = = = = = = = = = = = = + + = = = > = > > q w u u u u r y u 9 9 9 3 > , = > ; = = = = & - ^ b s y # # # N   4 ",
"6 6 6 6 o 6 6 = = = + = = + = = = = & = + : 0 : c c x K R R K ` [ [ [ [ ] ] ] [ [ [ K v b v b v b b l q > , v b x 6 # # y y   N ",
"6 6 6 6 6 6 6 = = = = = + * = = + > t 9 0 z v K / ^ / ' { { ' { { { ' [ o.[ o.o.[ ) J c c v b c b b x w 7 > v b l y y 6 y $   N ",
"6 6 6 y 6 6 6 = = = = = = 0 r v x v T E R ` %.-.:.:.:.;.*.=.;.*.=.o.&.=.o.o.o./ W R J R R Z b R C l u r s r v b s 6 6 6 y $   N ",
"6 $ 6         = = = = = t t 0 x s t b L I U ,.<.>.>.>.2.| +.2.| ..P ! ..P I I I I Y Y I Y S l I b t l d s l v b v   6 $ $     $ ",
"              = = = = + : ; + + = & = + * * O + + O % O & % O % % * * & * = * * * & ; ; % > 3 ; , q q 8 q q c c x               ",
"N N $   y - N = = = = & = = = = = = = = = = = = = = = = * = = = = * = = * + = = * * = = * * * # = = = = > , u s s 6 4 N N N N N ",
"6 6 N   4 6 6 = = = = = = = = = * + = = = = = = = = = = = = = = = = = = = = * * = = = = = = & = = & = & = = v m v 4 6 6 y y y y ",
"6 6 6   N 6 6 = = = = = = = = = * * = = = = = = = = = = = = = = = = = = = = = * = = = = = = = = = = = = = = c b l N 6 6 y y y y ",
"6 6 $   N 6 y = & = = & & + & & & & & & + = * = & & + = & = & & = & = = & & & & * + * = + = * = & = = = = = x b l N y y y y y y ",
"6 6 $   N 6 6 & = = 3 7 q q t l k a t a 7 u 7 7 7 9 7 7 3 7 7 7 7 7 7 7 > : , : : > : : : = = * = & & & & = v b t $ @ y y y y y ",
"6 6 $   N 6 6 > w s p a v b b b b m c R E W H Z C b s a s p s p t w w w q q w q 7 7 7 7 7 , < 3 > : : > ; * v x s # @ 6 y y y y ",
"6 6 $   N 6 6 x x b b b b b c K T ( ) [ o.o.] ] _ K R b b m b v C z l l l z p q 9 w w w w w w w w w w w q ; v x s N @ 6 y y y y ",
"$ $     $ N 6 b b b v b b b b Z b E ( ( Y W ) _ [ ] [ ] Q ( H Z Z H b b C b v c c v c v b x x l w w q > 3 ; v v w   N 6 y $ $ $ ",
"              b b b b b b b b n b c c c n c C T H H J T J T K K R T x v v c C b b b b z x l s s r q > : = : x s w               ",
"N N N N N N N r s b v v v v b C b m m H m C T T T T T J T H b b m n T H F H m F b x l t l s s p w > 7 3 = ; x s w N N N N $   y ",
"6 6 6 6 6 y y ; > 7 , 7 7 7 r t t t t i t a L P P P P P P L t t t t L V a i t t 0 9 7 7 9 7 , , 7 7 > 7 7 7 c l w y 6 6 6 N   4 ",
"6 6 6 6 6 6 6 & & & & & + & & & & & & % = & + + % % & % % % + & & & O + & % & & + & * + & & & & & & & & & = s w w 6 6 6 y y   N ",
"6 6 6 6 6 6 6 = = = & = = = = = = = & = = = = = = = = = = = = = & * = = = = = & = = = = & = = = * & = = = = u r w 6 6 6 y $   N ",
"6 6 6 6 6 6 6 = = = = = = = = = = = = = = = = = = = = = = = = = = = = = = = = * = & = = & = = = = = = = * = s r w 6 6 6 y $   N ",
"6 6 6 6 6 6 6 = = = = = = = = = = = = = = = = = = = = = = = & = & = = = = = = = = = = = = = = = = = = = = = w , 7 6 6 6 y $   N ",
"6 $ 6         = = = = = = = = = = = = = = = = & = = = = = = = = = = = = = = = = = = = = = = = = = = = = = = > , ;   6 $ $     $ ",
"              & = = = = = = = = = & = = = = = = = = = = = = = = = = = = = = = = = = = = = = = = = = = & = * = = &               "
};
