/* XPM */
static char *floor_chest[] = {
/* columns rows colors chars-per-pixel */
"32 32 17 1 ",
"  c #1C1117",
". c #2B121F",
"X c #421B2E",
"o c #56252F",
"O c #7A3333",
"+ c #AA3333",
"@ c #AA6622",
"# c #874040",
"$ c #649154",
"% c #CCAA44",
"& c #DBC244",
"* c #487085",
"= c #5A8CA6",
"- c #C49387",
"; c #A3C197",
": c #8EBBD1",
"> c None",
/* pixels */
">>>>>>>>>>>>>>>>>>>>>>>>>>>>>>>>",
">>>>>>>>>>>>>>>>>>>>>>>>>>>>>>>>",
">>>>>>>>>>>>>>>>>>>>>>>>>>>>>>>>",
">>>>>>>>>>>>>>>>>>>>>>>>>>>>>>>>",
">>>>>>>>>>>>>>>>>>>>>>>>>>>>>>>>",
">>>>>>>>>>>>>>>>>>>>>>>>>>>>>>>>",
">>>>>>>>>>>>>>>>>>>>>>>>>>>>>>>>",
">>>>>>>>>>>>>>>>>>>>>>>>>>>>>>>>",
">>>>>>>>>>  >>>>>>>>  >>>>>>>>>>",
">>>>>>>>  *X        X*  >>>>>>>>",
">>>>>>>> #:o########o:# >>>>>>>>",
">>>>>>>> O*oOOoXXoOOo*O >>>>>>>>",
">>>>>>>> ==X==X==X==X== >>>>>>>>",
">>>>>>>>  *o  X*=X  o*  >>>>>>>>",
">>>>>>>> .            . >>>>>>>>",
">>>>>>>> .  &&%%@@+-  . >>>>>>>>",
">>>>>>>> . @$;@&&%++& . >>>>>>>>",
">>>>>>>> .&%$$&%%@@%%&. >>>>>>>>",
">>>>>>>> .............. >>>>>>>>",
">>>>>>>> oooooooooooooo >>>>>>>>",
">>>>>>>> oooooooooooooo >>>>>>>>",
">>>>>>>> XooooooooooooX >>>>>>>>",
">>>>>>>> XXXXXXXXXXXXXX >>>>>>>>",
">>>>>>>>                >>>>>>>>",
">>>>>>>>>>>>>>>>>>>>>>>>>>>>>>>>",
">>>>>>>>>>>>>>>>>>>>>>>>>>>>>>>>",
">>>>>>>>>>>>>>>>>>>>>>>>>>>>>>>>",
">>>>>>>>>>>>>>>>>>>>>>>>>>>>>>>>",
">>>>>>>>>>>>>>>>>>>>>>>>>>>>>>>>",
">>>>>>>>>>>>>>>>>>>>>>>>>>>>>>>>",
">>>>>>>>>>>>>>>>>>>>>>>>>>>>>>>>",
">>>>>>>>>>>>>>>>>>>>>>>>>>>>>>>>"
};
