/* XPM */
static char *floor[] = {
/* columns rows colors chars-per-pixel */
"32 32 5 1 ",
"  c black",
". c #010102",
"X c #1D1E1E",
"o c #162020",
"O c #212222",
/* pixels */
"OO  OOOO  ooooOOOOOOOOOO..XOOO  ",
"  OO    OOoooOOOOOOOOOOO.X....XX",
"OOOOOOOOO  X OOOOOOOOOO.XOOOO.OO",
"OOOOOOOO XXOO OOOOOOOOO.XOoO OOO",
"OOOOOO  XOOOOO.OOOOOOOO.OOoO OOO",
"OOOoO XXOOOOOO.OOOOOOOO.OooooOOO",
"OOOo  XOOOOOOO....OOOOO.Oooo OOO",
"OOO ooooooOOOO.XXX.....XOOOO OOO",
"OO XOOOooOOooO.OOOOOo.XOOOOO OOO",
"O XOOOOoooooOO.OOOOoOO OOOO X  O",
" XOOOOOo OOOO.  OooooOO O  XOOO ",
" XOOOOOoX    OOoooooOOO  XXOOOOO",
"X OOOOooXXOOOOO OOoOOOO XOOOOOOO",
"OX OOOO XOOOOOO OOOOOOOO OOOOOOO",
"OOO OOO XOOOOO X.....OOO OOOOOOO",
"OOOO OO XOOOOO OOOOOO   X OOOOOO",
"OOOOO  OOOoOO.OOOOOOOOOOOX OOOOO",
"OOO  X ooooO.oOOOOOOOOOOOO OOO  ",
" O  XOoooOOO.X OOOOOOOOOOOO   OO",
"  XXOOoOo  .XOO OOOOOOOOOO XXOOO",
" XOOOOOoo XXOOO OOOOOOOO  XOOOOO",
" OOOOOOo XOOOOOO OOOO   X XOOOOO",
" OOO  O XOOOOOOOO    OXXXoXOOOOO",
" OO XX XOOOOOOOO XOOOOOOOo OOOOO",
"O  XOO XOOOOOOOOO XOOOOOoOO OOOO",
" XXOOO XOOOOOOOOO OOOOOooOO OOOO",
" OOOOOO OOOOooOOO OOOOooooO OOOO",
" OOOOoOO OOOOOoo OOOOOOOOoo  OOO",
" OOoooOOO    ooooOOOOOOOOOO X O ",
" OOOooOOOOOOXooX oOOOOOOOO XOO O",
" OOOOOOOOOOO OOOOOo OOOO  XOOOOO",
"O OOOOOOOOO OOOOOOOO    XXOOOOOO"
};
