/* XPM */
static char *malikna[] = {
/* columns rows colors chars-per-pixel */
"170 170 256 2 ",
"   c #0C0C0D",
".  c #050305",
"X  c #17130D",
"o  c #0D0E13",
"O  c #151515",
"+  c #16151A",
"@  c #1B1B1B",
"#  c #1A1718",
"$  c #140D0F",
"%  c #380C17",
"&  c #241A18",
"*  c #3A141C",
"=  c #290D14",
"-  c #26211D",
";  c #36231B",
":  c #1E1D22",
">  c #1A1C25",
",  c #0D1323",
"<  c #201F24",
"1  c #231926",
"2  c #3B1924",
"3  c #1D2126",
"4  c #1B2635",
"5  c #232224",
"6  c #2B2423",
"7  c #25252A",
"8  c #28272C",
"9  c #2A2A2D",
"0  c #272929",
"q  c #362927",
"w  c #3A322D",
"e  c #2D2D32",
"r  c #282934",
"t  c #312F34",
"y  c #332D3B",
"u  c #2D3135",
"i  c #323135",
"p  c #353439",
"a  c #38373C",
"s  c #3A393E",
"d  c #3B3735",
"f  c #21302B",
"g  c #1D211C",
"h  c #43141E",
"j  c #49161E",
"k  c #450D19",
"l  c #441522",
"z  c #4B1522",
"x  c #441923",
"c  c #4C1B26",
"v  c #4B1C29",
"b  c #521A26",
"n  c #521C2A",
"m  c #571827",
"M  c #561D32",
"N  c #492728",
"B  c #54252B",
"V  c #46342B",
"C  c #54342B",
"Z  c #473A35",
"A  c #573B35",
"S  c #532735",
"D  c #683A35",
"F  c #522D1D",
"G  c #4B423B",
"H  c #58443A",
"J  c #58422C",
"K  c #66473B",
"L  c #77473A",
"P  c #77503F",
"I  c #3D3C41",
"U  c #373744",
"Y  c #403F44",
"T  c #473F4B",
"R  c #553746",
"E  c #6F3E44",
"W  c #3D4048",
"Q  c #424145",
"!  c #45444A",
"~  c #48474C",
"^  c #4B4A4E",
"/  c #4A4747",
"(  c #564A45",
")  c #5B534C",
"_  c #4D4C51",
"`  c #494A57",
"'  c #524D54",
"]  c #535354",
"[  c #555559",
"{  c #5B5B5C",
"}  c #5A5755",
"|  c #4E5155",
" . c #684B42",
".. c #764C44",
"X. c #67544A",
"o. c #73554B",
"O. c #775649",
"+. c #675B55",
"@. c #795C53",
"#. c #664856",
"$. c #69625B",
"%. c #78645A",
"&. c #7D604E",
"*. c #5A5A64",
"=. c #545769",
"-. c #6F5B67",
";. c #626263",
":. c #69686A",
">. c #766A65",
",. c #6A6A76",
"<. c #777677",
"1. c #796F6F",
"2. c #5A6164",
"3. c #8C4C3B",
"4. c #87584A",
"5. c #945A49",
"6. c #885B54",
"7. c #8F4F4F",
"8. c #876558",
"9. c #976659",
"0. c #936753",
"q. c #A56A5B",
"w. c #B16D5D",
"e. c #896C62",
"r. c #976B63",
"t. c #8A7569",
"y. c #997668",
"u. c #877A76",
"i. c #9A7C73",
"p. c #866776",
"a. c #A66D63",
"s. c #AC7B6C",
"d. c #A77668",
"f. c #B67869",
"g. c #A97B73",
"h. c #B67D74",
"j. c #B26C69",
"k. c #A75652",
"l. c #C3786E",
"z. c #993537",
"x. c #709B6E",
"c. c #78A568",
"v. c #73A36E",
"b. c #998379",
"n. c #87847D",
"m. c #AA8577",
"M. c #B88678",
"N. c #B08771",
"B. c #8FAF6D",
"V. c #B0B66E",
"C. c #C38B7C",
"Z. c #C58778",
"A. c #CE8F7D",
"S. c #C5B975",
"D. c #777885",
"F. c #6E7482",
"G. c #867C8A",
"H. c #7D8592",
"J. c #7F8EA3",
"K. c #878689",
"L. c #888996",
"P. c #8B929C",
"I. c #969699",
"U. c #958B8E",
"Y. c #B78B83",
"T. c #BA9684",
"R. c #A79D97",
"E. c #AC958A",
"W. c #94B08D",
"Q. c #B1AA95",
"!. c #9799A6",
"~. c #8F92A4",
"^. c #A29CA8",
"/. c #9CA1AD",
"(. c #9EA6B1",
"). c #A7A6A9",
"_. c #A7A9B7",
"`. c #B8B7B9",
"'. c #B0B1B1",
"]. c #C68C82",
"[. c #CD9B8D",
"{. c #C79687",
"}. c #D5988A",
"|. c #D59C92",
" X c #D1958C",
".X c #C6A28D",
"XX c #CAA695",
"oX c #D4A394",
"OX c #DBAA9C",
"+X c #D8A798",
"@X c #D8B19D",
"#X c #D4A98B",
"$X c #E2AA9B",
"%X c #E3B29D",
"&X c #DAACA3",
"*X c #DCB4A4",
"=X c #DAB7A7",
"-X c #CDB9B2",
";X c #E3B4A4",
":X c #E3B5AA",
">X c #E4BBAC",
",X c #E7BAA9",
"<X c #E5BDB2",
"1X c #E8BCB2",
"2X c #E3ADA3",
"3X c #E29E91",
"4X c #B8C296",
"5X c #B8C4B1",
"6X c #C9C495",
"7X c #C3C5BB",
"8X c #D0C9B2",
"9X c #EAC3B4",
"0X c #EBC5BA",
"qX c #EDCABD",
"wX c #E6C2B5",
"eX c #EBC4B3",
"rX c #B7B9C6",
"tX c #ACB5C6",
"yX c #9FB2CB",
"uX c #C1BCCA",
"iX c #BBC6D4",
"pX c #BBC3CA",
"aX c #B2C5E3",
"sX c #C5C5C4",
"dX c #C9CAC5",
"fX c #CDCDCC",
"gX c #C6C8C6",
"hX c #CDD1CB",
"jX c #D2D2CD",
"kX c #D7D4C8",
"lX c #C7CAD5",
"zX c #CCD2D8",
"xX c #D5D5D5",
"cX c #DAD9D6",
"vX c #D5D6D9",
"bX c gray86",
"nX c #D8D7D7",
"mX c #D2CDCD",
"MX c #EDCCC2",
"NX c #E1DEDC",
"BX c #F2D0C5",
"VX c #DCE2DD",
"CX c #E2E1DD",
"ZX c #E8E7DB",
"AX c #F5F3DC",
"SX c #CAD8E4",
"DX c #DCDDE1",
"FX c #D5D9E7",
"GX c #D0D9EF",
"HX c #E3DDE1",
"JX c #DBE2E7",
"KX c #DAE7F5",
"LX c #CFE3EC",
"PX c #E1E1E1",
"IX c #E9E9E9",
"UX c #E9EDF3",
/* pixels */
"xXfXmXxXxXjXzXxXxXxXxXxXxXxXxXvXxXxXnXnXnXvXnXnXvXbXvXbXbXbXnXbXbXbXnXbXbXnXbXbXbXbXbXbXbXbXbXbXbXbXbXbXbXbXbXbXbXbXJXbXbXbXbXPXbXbXbXCXNXbXbXNXbXbXbXJXNXbXNXbXCXbXbXVXbXCXbXDXbXCXNXbXPXbXbXCXbXbXPXbXbXbXJXNXbXbXJXNXbXbXbXbXPXPXbXbXbXbXbXbXbXbXbXbXbXbXbXbXbXbXnXbXnXbXbXnXbXbXnXnXnXnXnXnXnXnXnXxXxXxXxXnXxXxXjXzXmXxXzXmXxXzXmXjXmXjXfXjXfXlX",
"jXxXmXzXxXjXxXmXxXxXxXxXxXxXxXxXnXnXnXnXnXnXnXvXnXnXnXnXnXnXbXnXbXnXbXbXbXbXnXbXbXbXbXbXbXbXbXbXbXbXbXbXDXbXDXbXbXNXbXNXNXbXbXbXbXbXbXbXbXJXbXbXPXbXnXbXbXbXPXbXcXbXbXbXbXbXbXbXbXbXCXbXbXbXDXPXbXPXbXbXPXbXNXbXPXbXNXbXbXPXPXbXbXbXNXbXDXbXbXNXbXbXbXbXbXbXbXbXbXbXbXbXbXbXbXnXnXvXnXbXnXbXvXbXvXnXvXxXxXxXxXxXxXjXxXxXxXxXjXxXjXjXmXjXmXzXzXmXfXfX",
"jXjXjXxXmXxXxXxXxXxXxXxXxXxXxXxXnXxXnXvXnXnXnXvXnXnXvXbXnXbXnXbXbXbXbXbXbXbXbXbXbXbXbXbXbXbXbXbXbXbXbXbXbXbXbXbXbXbXbXNXbXbXbXbXbXCXDXbXbXbXbXDXnXbXPXPXbXbXnXnXCXbXbXbXCXZXbXbXPXNXnXbXPXPXbXnXbXbXPXPXbXNXbXbXPXbXbXbXbXbXVXbXPXbXDXbXbXNXDXbXDXbXVXbXbXbXbXbXbXbXbXbXvXbXbXnXnXbXbXvXnXvXnXvXnXvXxXnXvXxXxXxXxXxXxXxXxXjXzXxXxXmXzXjXjXfXmXfXfXjX",
"jXzXzXmXxXzXjXxXxXxXxXxXxXxXxXxXnXvXnXnXnXbXnXnXnXbXbXnXbXbXvXbXbXnXbXnXnXbXbXbXbXbXbXbXbXbXbXbXbXbXbXbXDXNXbXVXDXbXbXbXbXbXPXbXbXbXbXbXbXNXbXbXnXbXbXbXbXbXPXPXcXbXVXcXnXbXbXbXbXNXJXbXbXbXDXPXPXbXbXbXbXJXbXNXbXbXPXCXNXDXNXDXbXbXPXbXbXbXbXNXbXbXbXNXbXbXbXbXbXbXbXbXbXnXbXbXbXnXbXnXnXbXnXnXnXnXnXvXnXnXxXxXxXxXxXzXjXxXxXmXxXmXzXmXjXlXjXjXmXfX",
"jXjXmXxXjXzXmXxXxXxXxXxXxXxXxXvXnXvXvXnXnXnXbXnXnXbXbXnXbXbXnXbXbXbXnXbXbXbXbXbXbXbXbXbXbXbXbXbXbXNXDXbXbXNXbXbXNXbXbXbXbXbXbXbXDXbXbXbXbXDXbXbXbXPXbXbXbXbXbXnXDXbXDXbXbXbXVXVXDXJXbXbXbXJXbXNXbXbXbXPXNXbXbXPXDXbXCXbXbXbXDXbXbXPXDXbXVXbXbXbXVXbXbXbXbXbXbXbXbXbXbXbXbXbXbXbXnXvXbXnXnXnXbXnXnXnXnXnXxXvXxXxXxXxXxXxXxXfXxXxXjXzXxXjXjXfXzXmXfXjX",
"zXxXxXmXxXxXxXxXxXnXxXxXnXnXxXnXnXnXnXnXbXnXnXvXbXnXnXbXnXbXbXbXnXbXbXbXbXbXbXbXbXbXbXbXbXbXbXbXbXbXbXbXbXbXbXDXbXVXbXDXNXbXDXNXbXbXCXbXbXbXNXbXnXbXPXPXbXbXbXPXbXDXDXJXPXPXPXCXcXNXCXbXbXNXPXbXPXPXbXbXbXPXbXbXbXCXbXDXPXCXbXCXbXbXNXbXbXPXbXbXbXbXDXNXbXbXbXbXbXbXbXbXbXnXbXnXnXbXbXnXbXvXnXvXnXnXxXvXnXxXxXnXxXxXxXxXxXxXxXxXjXxXmXzXmXzXfXjXfXfX",
"jXmXjXzXxXxXxXjXxXxXxXxXnXxXnXvXxXnXnXnXnXnXbXnXnXbXnXbXvXbXnXbXnXbXbXbXbXbXbXbXbXbXbXbXbXbXbXbXbXDXNXbXbXDXbXbXbXbXNXbXbXbXVXbXbXbXbXbXVXbXbXbXbXDXbXbXbXVXPXPXPXbXxX7X'.R.R.'.7XxXNXPXCXbXbXbXbXbXPXbXbXbXbXPXDXbXbXNXbXbXDXbXPXPXbXbXbXbXPXPXNXbXbXbXbXNXbXDXbXbXbXbXbXnXbXbXbXnXbXvXnXnXbXnXnXnXnXnXnXnXnXxXxXxXxXxXxXxXxXhXxXzXmXjXjXjXmXmXzXmX",
"jXxXzXjXxXxXmXxXxXxXxXnXxXvXnXnXnXnXnXnXnXvXnXnXvXnXbXbXbXbXbXbXbXbXbXbXbXbXbXbXbXbXbXbXbXbXbXbXbXbXbXVXbXbXbXNXDXbXbXbXbXDXbXbXCXbXDXbXbXNXbXDXNXbXnXPXPXxX`.).R.u.+.G Z d d G X.;.u.R.dXPXPXbXbXPXbXbXPXPXbXbXbXCXbXbXNXJXbXCXbXbXbXPXPXbXbXbXDXbXbXDXbXbXbXbXbXbXbXbXbXbXbXbXbXnXbXnXbXnXnXnXbXnXnXvXnXxXxXnXxXxXxXjXxXxXxXxXxXjXmXxXmXzXjXzXfXjX",
"zXxXjXzXxXxXxXxXxXxXxXxXxXxXnXnXvXnXvXvXnXnXbXnXbXbXbXbXbXbXnXbXbXbXbXbXbXbXbXbXbXbXbXbXbXbXbXbXNXVXbXbXbXbXVXbXbXbXbXNXbXCXbXDXDXDXnXNXnXNXbXbXbXbXVXbXU.) d G H w w w d Z H G G ( G G +.n.5XZXPXbXbXDXVXDXbXCXbXbXbXPXbXbXCXbXbXbXbXPXbXPXPXbXbXNXbXbXbXbXbXDXbXbXbXbXbXbXbXnXbXvXbXnXbXnXnXnXnXnXvXnXxXxXvXxXxXxXxXxXzXxXxXxXzXxXmXzXjXmXjXmXjXfX",
"mXxXxXmXmXxXxXxXxXxXxXxXvXnXnXnXnXnXnXbXnXbXvXbXbXnXnXbXnXbXbXbXbXbXbXbXbXbXbXbXbXbXbXbXbXbXbXNXbXbXbXDXDXbXbXNXDXbXbXbXbXbXbXbXbXbXbXbXbXbXPXnXnXNX7X:.6 0 f G w 0 g q G G H G G ( H ) / ( $.n.dXNXPXbXbXPXNXbXbXPXbXbXNXbXbXDXPXPXbXbXbXbXbXbXbXDXDXbXCXbXbXbXbXbXbXbXbXbXbXbXbXbXnXbXnXbXvXbXnXnXvXnXcXnXxXcXvXxXxXxXxXxXxXjXmXjXxXjXjXzXjXzXjXlX",
"zXjXxXmXxXxXxXxXxXxXxXxXxXnXnXnXnXnXnXnXbXbXbXnXnXnXbXbXvXbXnXbXbXbXbXbXbXbXbXbXbXbXbXbXbXbXVXbXbXDXNXbXNXbXDXbXbXbXDXbXDXbXbXbXnXPXNXbXPXbXmXPXPXK.i - # - w - 0 q ; w Z G H H H X.H +.) ( +.:.;.R.nXDXbXJXnXbXPXbXPXbXJXNXDXbXbXbXPXbXPXbXbXPXbXbXbXbXDXbXVXNXbXbXbXbXbXbXbXnXnXbXbXnXbXnXnXnXnXbXnXnXnXvXnXxXnXxXxXxXjXxXjXxXxXxXmXxXzXmXmXjXjXmX",
"mXxXxXxXzXjXxXxXxXxXxXxXxXnXvXvXnXnXnXvXbXvXvXbXnXbXbXvXbXbXbXbXbXbXbXbXbXbXbXbXbXbXbXbXbXDXbXbXNXbXbXbXbXbXbXbXDXNXbXbXbXbXCXbXbXPXbXbXbXbXHXIXR.6 6 w - 0 w w 0 w d G Z Z +.+.P X.+.H X.) } $.>.) R.cXCXbXPXDXbXbXPXbXbXNXbXNXbXPXbXbXPXbXbXPXPXbXCXbXbXbXbXbXbXNXbXbXbXbXbXbXbXbXbXnXbXvXnXvXnXnXnXvXnXxXxXnXvXxXxXnXxXxXvXxXmXxXxXmXzXjXlXjXfXzX",
"xXxXjXzXxXxXxXxXxXnXxXnXnXnXnXnXnXbXnXnXbXnXbXnXnXnXbXnXbXbXbXbXbXbXbXbXbXbXbXbXbXbXbXbXbXbXNXDXbXbXbXbXNXbXbXNXbXbXbXDXbXbXbXbXbXnXnXNXNXxXHXI.d X - & X X q w q 0 w w G G H $.%.e.o.$.%.$.+.) 1.>.} K.kXZXbXVXbXPXbXbXPXbXbXDXbXbXVXNXPXbXbXbXbXbXbXbXNXbXbXDXbXbXDXbXbXbXbXbXnXbXbXnXnXbXnXbXnXnXnXnXnXvXvXxXnXxXxXxXxXxXxXxXxXxXjXjXjXzXmXjXmXfX",
"zXjXxXxXxXxXxXxXxXnXnXxXnXnXnXnXnXnXvXbXvXbXnXbXbXbXbXbXbXbXbXbXbXbXbXbXbXbXbXbXbXbXbXbXbXDXbXbXbXbXbXbXbXDXbXbXbXVXbXbXbXNXNXbXbXbXbXNXNXIXU.d - X # X & & - d - - w w G H K &.t.8.8.O.%.t.%.$.) $.$.+.n.bXbXcXbXbXPXbXPXbXbXPXNXDXbXDXbXbXPXbXPXPXbXbXbXbXbXbXbXVXbXbXbXbXbXbXbXbXvXbXbXnXbXnXvXbXnXnXnXvXxXcXcXxXnXvXxXxXxXjXxXxXjXzXzXmXmXxXzXjX",
"mXxXxXxXxXxXxXxXxXnXnXxXvXvXxXnXnXbXnXbXbXnXnXbXbXvXnXbXnXbXbXbXbXbXbXbXbXbXbXbXbXbXNXbXbXbXbXDXJXbXbXbXbXbXNXDXNXbXDXNXbXbXNXbXbXPXbXnXbXuX] w 6 X & g - 6 6 w q - G G J G o.%.8.m.b.4.%.%.1.%.$.>.$.$.} I.IXxXPXPXbXbXbXbXbXbXbXbXbXPXbXPXbXPXbXbXbXNXbXNXNXbXbXbXbXbXbXbXbXbXnXbXbXbXnXbXbXnXnXvXnXvXnXvXxXxXxXcXxXxXxXxXxXxXmXxXxXjXjXjXxXxXjXmX",
"xXxXmXxXmXxXxXxXnXxXxXvXnXnXnXnXbXnXbXnXnXnXbXnXbXbXbXbXbXbXbXbXbXbXbXbXbXbXbXbXbXDXbXbXNXbXbXbXNXbXbXNXbXVXbXbXbXbXbXbXbXJXbXbXbXbXDXbXHXx.G G & & 6 6 6 6 w V w w G H H H X.&.N.M.V.N.8.8.$.$.1.%.>.+.+.>.7XZXbXbXbXPXbXPXPXbXPXPXbXbXbXPXbXbXbXPXbXbXbXJXbXbXbXDXbXbXbXbXbXbXbXbXbXnXvXbXnXbXnXbXnXnXvXcXnXxXvXxXxXxXxXxXxXxXxXxXmXzXzXjXjXmXlXjX",
"zXjXhXxXxXxXxXvXxXnXxXvXnXvXbXnXvXnXbXnXvXnXbXbXbXbXbXnXbXbXbXbXnXbXbXbXbXbXbXbXbXbXbXbXbXbXVXbXbXNXbXbXbXbXNXJXbXNXbXbXbXbXbXDXbXNXnXbXbX$.) G - ; 6 q q q N V w Z V Z H K 8.y..XXXXXT.m.y.&.X.$.%.$.>.%.H u.cXDXPXbXbXPXbXDXDXbXbXbXPXbXbXDXbXPXbXbXPXbXbXbXbXbXbXbXPXbXbXbXbXbXbXbXnXbXnXbXnXnXnXvXVXnXvXnXnXxXnXnXxXxXxXxXxXxXxXxXjXjXjXzXmXzXjX",
"xXxXxXxXxXxXxXxXnXxXnXnXnXvXnXnXnXnXnXbXbXbXbXnXbXnXbXbXbXbXbXbXbXbXbXbXDXbXbXbXbXbXbXbXbXDXbXNXbXbXVXDXbXbXbXbXbXbXbXNXbXCXbXbXbXnXJXIX`.$.+.G q q q q q V V Z Z Z Z A X.O.t.m.XX=XwXXX.Xm.e.>.+.%.x.>.+.+.G ).IXnXNXPXbXbXNXDXbXPXbXbXPXbXNXbXPXbXbXPXbXPXJXbXPXbXbXbXbXbXbXbXbXbXbXbXbXnXnXbXbXbXnXnXnXnXnXnXnXnXxXxXxXxXxXxXxXzXxXxXzXjXxXmXjXjX",
"xXxXxXxXxXxXxXxXxXvXxXnXvXnXnXnXnXnXbXnXnXnXbXnXbXbXbXnXbXbXbXbXbXbXbXPXbXbXbXbXbXbXbXbXNXbXbXbXDXbXbXbXNXbXbXbXDXbXbXbXbXJXbXbXCXbXbXnXU.( ) G Z V q N V A ( X. .A A X.&.%.b.A.&X=XwXwX=XM.t.t.%.%.1.>.) +.) } fXNXbXPXbXbXCXbXPXbXPXbXPXbXbXbXbXbXbXbXbXbXNXbXbXbXbXbXbXbXbXbXbXbXbXnXbXvXbXnXnXnXnXnXnXnXnXnXxXnXxXxXxXxXxXxXxXmXxXmXxXxXjXzXxXxX",
"xXjXxXxXxXxXxXxXxXnXxXnXnXnXnXnXnXnXbXnXvXbXbXbXbXnXbXbXbXbXbXbXbXbXbXbXbXNXbXbXbXbXbXbXbXbXbXNXbXbXNXbXbXbXbXCXVXbXbXbXbXNXbXCXnXbXVXnX1.G +.X.H Z q V A o.o.@.o. . .%.e.y.m.@X8XMXwXBXwXXXm.e.%.%.1.>.) +.$./ U.IXbXbXbXPXDXNXbXbXPXbXbXbXPXPXbXPXPXbXCXNXbXbXbXbXPXbXbXbXbXbXbXbXbXbXbXbXnXbXnXbXnXnXnXnXxXvXnXxXvXnXxXxXxXxXxXxXxXxXjXxXmXmXmXmX",
"jXxXzXxXxXxXxXxXnXnXxXnXvXnXnXvXbXnXbXvXnXbXbXbXbXbXbXbXbXbXbXbXbXbXbXbXbXbXbXbXbXbXbXbXbXDXbXbXNXDXbXbXbXbXbXbXbXbXDXbXbXbXDXbXbXnXNXjXX.) %.o.H A A H o.8.r.8.e.8.e.g.m.E.XX:XwXMXMXBXeXwX.Xy.>.%.+.1.X.X.$.) ) dXCXbXDXDXbXbXbXPXPXbXbXPXbXbXbXDXbXDXbXCXbXbXbXbXbXbXPXbXbXbXbXbXbXnXbXbXbXnXbXbXvXnXvXvXnXnXnXxXnXxXvXxXxXxXxXxXmXxXzXjXzXmXjXzX",
"xXxXxXxXnXxXxXnXxXvXnXnXnXnXnXVXnXbXnXbXbXbXnXbXbXbXbXbXbXbXbXbXbXbXbXbXbXbXPXbXbXbXbXbXbXbXbXbXbXbXNXbXbXCXDXbXNXbXbXbXbXCXbXbXNXnXIXR.X.&.8.%.K  .@.o.8.r.m.N.h.g.Y.T..X@X-XwX0X0XMXBXBX9X=Xm.o.>.+.1.$.+.X.) G U.PXbXDXbXbXPXbXbXbXbXbXbXPXbXCXbXCXbXDXbXbXbXbXbXPXbXbXbXbXPXbXbXbXbXbXbXnXvXbXnXbXnXVXnXvXnXnXvXxXvXxXxXxXxXxXxXxXxXjXxXxXjXmXzX",
"xXxXxXxXxXxXxXvXxXnXvXnXvXnXnXnXbXnXbXnXbXbXbXbXbXbXbXbXbXbXbXbXbXbXbXbXbXPXbXbXbXbXbXbXCXbXbXNXbXVXbXbXbXbXbXbXbXbXNXbXbXbXbXbXbXPXbXn.t.t.e.r.@.@.e.r.i.M.[.[.[.[.oX+X&X:X1X1XqXMXBXMXBXqX>XN.e.$.b.u.+.%.$.) / +.cXbXPXbXbXCXNXbXPXPXPXPXbXbXbXDXbXCXNXJXDXbXDXbXNXbXbXbXbXbXbXbXbXbXnXbXnXbXbXbXnXbXnXnXnXnXnXnXxXnXxXxXxXxXxXxXxXxXzXxXjXzXxXjX",
"xXxXxXxXxXxXnXxXnXxXvXnXbXnXnXvXnXbXnXbXnXbXnXbXbXbXbXbXbXbXbXbXbXbXPXbXbXbXPXbXbXbXbXbXbXbXbXJXNXbXbXDXbXDXbXCXbXbXDXbXbXDXbXbXbXbXsXu.i.i.g.d.r.8.r.g.m.{.oX.X+X&X:X&X=X<X<XMXwX0XwXBXBXqXwX#Xm.8.$.1.$.$.%.+.( ( `.bXPXJXbXbXDXbXbXbXbXbXbXPXCXbXNXbXbXbXNXbXNXVXbXDXbXbXbXbXbXbXbXnXbXbXbXbXnXnXbXnXnXnXnXvXnXnXnXxXnXxXxXnXxXxXxXmXxXmXxXmXmXzX",
"jXxXxXxXxXxXnXxXnXnXnXnXnXnXnXbXnXvXbXbXbXvXbXnXbXbXbXbXbXbXbXbXbXbXbXbXPXbXbXbXbXbXbXbXbXbXNXbXbXbXbXbXbXNXbXbXbXNXbXbXbXbXbXCXDXPX).m.m.d.g.m.s.d.h.M.{.{..XOX&XOX*X:X,X,X,X1X,X1XMXBXBXMX9X*XT.t.%.>.@.+.X.+./ ( K.PXbXbXPXbXbXDXbXDXbXNXNXDXbXbXbXbXbXbXDXbXbXbXPXbXbXbXPXbXbXbXbXbXbXbXbXbXbXbXbXnXvXvXnXnXxXnXnXnXxXxXxXxXjXxXzXxXjXjXzXxXjXmX",
"xXxXxXxXxXxXxXnXvXnXvXnXnXnXbXnXbXbXnXbXnXbXbXbXbXbXbXbXbXbXbXbXbXbXbXbXbXbXbXbXbXPXbXbXbXbXbXbXDXbXNXbXJXbXbXbXbXVXDXbXbXbXPXbXbXbXR.b.i.d.h.d.h.M.M.T.{.[.oXOXoXOX2X;X;X:X1X,X1X1XqXBXBXqX0X1X.Xb.%.>.+.+.+.+.( V +.mXPXbXbXPXCXbXCXbXbXJXbXbXNXJXDXbXbXNXbXbXbXbXbXbXbXPXbXbXbXbXbXbXbXnXbXnXnXvXnXbXnXbXnXnXvXnXnXxXnXxXxXvXxXxXxXmXxXxXmXxXjXzX",
"xXxXxXxXnXxXnXxXvXnXnXnXbXnXbXvXnXbXbXnXbXbXbXbXbXbXbXbXbXbXbXbXbXbXbXbXbXbXbXbXbXbXPXbXPXbXbXbXbXbXbXbXPXbXbXNXbXDXbXbXbXbXbXbXbXfXb.b.d.N.M.d.M.C.].{.[.[.oX$X+X+X$X2X2X:X,X1X1X1XqXBXMX0XqXeXXXm.>.>.+.X.( $.} / ( 7XPXDXbXbXbXbXbXCXNXbXNXbXbXbXbXNXbXbXbXNXPXbXbXbXbXbXPXbXbXbXbXbXbXbXbXbXbXbXnXnXnXvXnXbXvXnXnXvXxXxXxXxXjXxXxXxXxXmXxXxXmXzX",
"xXxXxXxXvXnXxXnXnXnXnXnXnXbXnXbXnXbXbXbXnXbXbXnXbXbXbXbXbXbXbXbXbXbXbXbXbXPXbXbXbXPXbXbXbXbXNXbXbXNXbXDXbXbXbXbXbXNXbXbXNXDXbXbXPX-Xb.y.d.N.N.f.M.C.{.{.}.|.oX+X+X$X$X&X2X,X1XeX1X1XMXBXMXqXqXqXXXb.i.t.+.( X.) ( X.) '.PXDXNXbXNXJXDXbXCXbXDXbXNXbXVXbXVXbXDXbXbXbXbXPXbXbXbXbXbXbXbXbXbXbXbXnXbXbXnXbXnXbXnXnXnXnXnXxXnXxXxXxXxXxXxXxXxXzXjXmXmXjX",
"xXxXxXxXxXxXnXnXvXnXnXnXvXnXbXnXbXbXbXbXvXbXnXbXbXbXbXbXbXbXbXbXbXbXbXPXPXbXbXbXbXbXDXbXbXNXbXJXbXbXbXbXbXbXCXbXNXbXbXbXDXbXbXbXVXR.b.d.d.N.M.M.Z.C.{.}.#X+XoX+X3X$X$X2X;X:X1X0X1X1XqXBXBX1XBXqXwXM.t.>.+.) +.%.( ) ^ I.IXxXbXCXbXbXPXbXbXVXbXbXNXbXbXVXbXDXbXbXPXbXbXbXbXbXDXbXbXbXbXbXbXvXbXbXbXnXbXnXbXbXvXnXnXnXnXnXnXxXxXxXxXxXzXxXmXxXmXxXxXxX",
"vXxXxXxXxXnXnXnXvXvXnXnXbXbXnXbXbXnXbXvXbXbXbXbXbXbXbXbXbXbXbXbXbXbXbXbXbXbXbXPXbXbXbXNXbXDXbXbXVXDXbXCXbXbXDXbXJXbXbXNXbXbXbXCXkXU.y.y.d.N.M.M.Z.].{.[.|.oXoX|.+XOXOX2X;X1X1X0X1X0XqXqXqXqXMX0X@XQ.e.%.>.X.( 1.( ) / u.ZXbXbXbXNXbXPXbXbXDXNXbXbXDXNXbXNXbXbXbXbXbXbXbXbXbXbXbXbXbXbXbXVXvXnXbXbXbXbXvXnXnXnXnXnXnXnXvXxXnXxXxXxXxXxXxXxXxXzXjXjXjX",
"xXxXxXnXxXnXvXnXnXbXnXnXnXbXbXnXbXbXnXVXbXbXbXbXbXbXbXbXbXbXbXbXbXbXbXbXbXbXbXbXDXbXbXbXbXbXbXDXbXNXbXbXbXbXbXbXbXbXbXbXbXbXbXPX7Xi.y.d.N.N.N.C.M.]. X{.|.oX|.oX&X2X2X*X,X,X,X9X1XqXqXqXeX1XqX1X.XE.&.$.+.H +.$.( ) G $.xXNXCXbXbXbXbXbXbXbXbXDXDXbXbXbXbXbXNXbXbXbXbXbXJXbXbXVXbXbXbXbXbXbXbXnXbXnXnXbXbXnXbXvXnXnXnXnXnXnXvXxXxXxXxXxXxXjXzXxXzXmX",
"nXxXxXxXnXxXvXnXnXnXnXvXbXnXnXvXbXnXbXbXbXbXbXbXbXbXbXbXbXbXbXbXbXbXbXbXbXbXbXbXbXNXbXVXbXNXbXbXbXbXbXbXDXCXbXbXbXbXPXCXbXbXDXPX'.t.i.d.N.N.M.C.C.{.[.}.|.#X+XOX:X:X2X2X1X1X1X1X1XqXqXqXqXqXqX2X.XM.b.$.%.+.>.G ) +.( $.mXNXbXJXPXPXbXbXNXbXbXbXbXCXDXbXNXbXbXDXbXbXVXbXbXbXbXbXbXbXbXbXbXbXbXbXbXbXbXbXnXbXnXnXnXnXnXxXvXxXnXxXxXxXxXxXjXxXmXxXjXjX",
"xXxXxXnXnXxXnXvXnXnXnXnXbXnXbXnXnXbXbXbXbXnXbXbXbXbXbXbXbXbXbXbXbXbXbXbXbXJXbXbXbXbXbXbXbXbXbXbXbXbXPXbXbXbXPXbXbXbXbXbXbXbXbXCXQ.b.y.y.s.M.{.C.Z.{.}.oX[.|.&X&X:X1X,X1X,X;X:X,XeXqXqXeX0X0X9X,X.XY.m.&.) >.$.G +.} +.} -XJXbXCXbXbXbXPXbXbXNXVXNXbXNXDXbXbXbXDXbXbXbXbXbXbXbXPXbXbXbXbXbXbXbXbXbXbXnXbXnXbXnXbXnXnXnXvXvXvXxXcXxXxXxXxXxXxXmXzXjXxX",
"xXxXxXxXxXnXnXnXnXnXvXbXvXbXvXbXvXbXnXbXbXbXbXbXbXbXbXbXbXbXbXbXbXbXbXbXbXbXbXbXbXbXbXbXbXbXbXVXbXbXbXbXbXPXbXbXbXNXbXbXNXbXbXCXE.e.y.d.s.M.C.M.C.].[.|.oX|.&X&X:X:X:X:X:X;X,X1X9XqXqX0X0X9XwX6XXXm.b.%.t.%.) H G / $.( '.IXxXbXVXNXbXbXNXbXDXbXDXbXbXbXNXbXbXbXbXbXPXbXPXbXbXbXbXbXPXbXbXbXbXbXbXbXbXbXbXnXbXnXnXnXnXnXnXxXxXvXxXxXxXxXjXxXxXjXzXxX",
"xXxXxXnXxXnXnXnXnXnXnXnXvXbXnXbXnXbXbXbXbXbXbXbXbXbXbXbXbXbXbXbXbXbXbXbXbXbXVXbXbXbXbXbXbXPXNXbXNXbXbXbXbXbXPXbXbXNXbXbXbXbXbXxXb.e.y.d.N.M.].Z.C.].[.|.[.oXOX&X&X:X:X:X:X:X:X<X0X0X9X0X0XeX,X@X@XT.8.t.n.%.$.) G ) ) G R.PXVXJXPXbXPXbXJXNXbXbXbXbXbXbXPXbXbXbXbXPXbXPXbXbXbXbXPXbXbXbXbXbXbXbXnXnXbXnXnXbXnXbXbXnXnXnXnXxXxXnXxXxXxXxXxXzXxXxXmXxX",
"xXxXnXvXvXnXxXvXbXnXnXnXnXnXbXnXbXbXnXbXbXbXbXbXbXbXbXbXbXbXbXbXbXbXbXbXDXbXbXbXbXbXbXbXbXbXbXbXbXbXbXNXbXbXbXbXbXbXbXVXVXnXCXjXb.t.y.y.s.h.M.].M.C.[.oX[.[.oXOX&X:X:X2X:X<X<X<X1X1XwX9XeXeXwX@XXXm.t.%.b.>.:.) G ) / ] U.ZXbXDXbXbXPXbXbXbXPXPXPXbXbXPXbXVXbXbXbXbXbXbXbXbXPXbXbXbXbXbXbXbXbXbXbXbXbXnXbXnXbXnXnXnXnXvXnXvXnXxXxXxXxXmXxXxXxXmXjXxX",
"xXxXxXnXnXvXnXnXvXbXnXnXbXnXbXnXnXbXbXnXbXbXbXbXbXbXbXbXbXbXbXbXbXbXbXbXbXbXbXbXbXbXbXbXbXbXbXbXbXNXbXJXbXbXbXbXbXbXNXbXJXbXCXdXt.t.0.N.s.N.M.M.C.].{.|.[.[.+X&X&X2X:X:X>X>X>X<X1X1XwX9XwXwX@X@X.XM.8.&.%.>.u.>.( G G ) u.PXxXDXbXPXPXbXbXPXbXbXNXbXbXbXNXDXbXbXbXPXbXbXbXbXNXbXbXbXbXbXbXbXbXbXbXnXbXnXnXnXbXnXbXnXnXnXnXnXnXxXxXxXxXxXxXzXmXxXjXxX",
"xXnXnXxXnXnXnXvXnXnXnXbXnXbXnXbXvXbXbXbXbXbXbXbXbXbXbXbXbXbXbXbXbXbXbXbXVXbXbXbXbXbXbXbXbXbXPXbXbXDXbXbXVXDXbXCXbXbXbXbXbXcXZX7Xe.y.0.y.h.h.M.l.C.].[.|.[.[.|.+X&X:X:X&X*X;X:X>X9X9X<X9XeX,X@XwXT.N.m.e.t.t.t.1.( G G ( 1.bXPXPXbXbXbXbXbXbXPXbXbXbXDXNXbXbXbXbXbXVXbXbXDXbXbXDXbXbXbXNXbXbXbXbXbXbXbXbXvXbXvXbXnXnXnXvXvXnXxXxXnXxXxXxXxXjXxXxXzXmX",
"xXxXxXnXvXvXnXnXnXnXnXnXnXbXbXvXbXbXbXbXbXbXbXbXbXbXbXbXbXbXbXbXbXbXbXbXbXDXbXbXbXbXbXbXbXPXbXbXbXbXbXbXbXNXbXbXCXbXDXbXbXcXPX`.8.b.N.N.h.N.M.Z.Y.].[.[.[.[.oXOX&X:X:X*X*X*X;X>X1XwXwX9XeXwXeX@XXXm.b.y.t.t.1.$.H G G ) 1.xXPXbXPXDXNXPXPXPXbXbXDXbXDXVXDXbXbXbXbXbXDXbXbXNXbXbXDXbXbXbXDXbXbXbXbXnXbXnXbXnXnXbXvXnXnXnXnXnXvXnXnXxXxXxXjXxXxXxXzXjX",
"vXnXnXxXnXnXnXnXvXbXvXbXbXnXnXbXnXbXbXbXbXbXbXbXbXbXbXbXbXbXbXbXbXbXbXbXbXbXbXbXbXbXbXbXbXbXbXbXbXNXbXDXbXbXbXbXbXbXbXDXbXcXIX`.8.0.0.d.s.M.C.C.C.].[.|.[.[.+X2X=X:X:X:X;X*X;X>X;X,X>X>XeXeXeXwX=X.XN.b.t.%.%.e.+.G G ( >.CXnXPXbXbXbXbXbXbXbXPXCXbXbXbXNXbXbXNXbXNXbXbXbXbXbXbXNXbXbXDXbXbXbXbXbXbXbXvXnXbXbXnXbXnXnXnXnXxXxXnXnXnXxXxXxXxXxXxXmXxX",
"xXxXxXxXvXvXvXnXnXnXnXnXbXnXbXbXnXbXbXbXbXbXbXbXbXbXbXbXbXbXbXbXbXbXbXbXCXbXbXbXbXbXbXbXbXbXbXbXbXbXbXbXbXbXbXDXDXbXNXbXVXbXZX5Xt.b.y.N.N.M.M.Z.{.A. X{.}.[.+X&X<X<X=X:X&X=X:X:XeX;XwXeXeX@XwXeX8XXXM.m.b.b.t.%.$.G ) G +.VXNXbXbXbXbXNXPXbXNXbXbXbXbXbXbXbXbXbXbXbXPXbXbXbXPXbXbXbXbXbXbXbXbXbXbXbXbXnXnXvXbXnXnXnXnXnXvXxXnXxXvXxXnXxXxXxXxXxXxXmX",
"xXxXnXxXnXnXnXnXnXnXbXnXnXbXnXbXbXbXbXbXbXbXbXbXbXbXbXbXbXbXbXbXbXbXbXbXbXbXDXbXbXbXbXbXbXPXDXbXbXNXbXPXbXbXbXCXbXbXbXcXbXbXcX'.0.0.y.d.f.M.M.A.{.{.{. X[.{.|.&X&X&X:X&X&X&X:X:X;X*X@X%XeX,X;XeXqX+XN.b.b.t.t.>.+.J 8.b.} xXPXbXbXNXbXJXbXbXbXbXDXbXbXNXNXbXCXbXbXbXbXbXbXPXbXbXDXbXNXDXbXbXbXnXbXbXbXbXbXbXnXbXnXbXvXnXnXnXxXnXxXxXxXxXxXxXxXxXxXxX",
"xXnXnXvXnXnXnXvXbXnXbXbXbXnXnXbXnXbXbXbXbXbXbXbXbXbXbXbXbXbXbXbXbXbXbXbXbXbXCXbXbXbXbXbXbXbXbXNXbXbXNXJXCXDXbXbXbXbXbXbXbXbXCX).%.e.9.d.f.N.Z.C.{.M.{.C. X].{.|.&X&X&X|.{.M.[.1X9XeX,X@X%X%XeXeXqXqXM.%.%.+.X.+.V O.+X9XR.dXNXPXPXbXCXbXbXbXbXNXbXbXbXbXbXbXbXbXPXbXbXbXbXbXPXbXbXbXbXbXbXbXbXbXbXbXvXbXbXnXvXnXnXnXnXnXnXvXnXxXnXnXvXxXxXxXxXjXxXmX",
"nXnXxXnXxXvXnXnXnXnXnXnXbXbXnXbXbXbXbXbXbXbXbXbXbXbXbXbXbXbXbXbXbXbXbXbXbXbXbXbXbXbXbXbXbXbXbXbXbXbXbXbXbXbXbXbXbXbXCXbXDXnXPXR.H X.&.y.s.f.M.M.{.].C.Z.C.C.M.M.Y.Y.p.t.@.X.8.E.XX=X>X:XOXOX%XeXqXeXN.b.&.+.+.H J  X}.q.oXcXbXbXPXbXbXbXDXCXJXbXbXNXbXJXCXbXbXDXbXbXbXPXbXbXbXbXbXCXbXNXbXbXbXbXbXbXbXbXbXnXbXbXvXnXbXvXnXnXxXvXnXxXxXxXmXxXxXzXzXxX",
"xXxXxXxXnXnXnXnXvXbXvXbXvXnXbXbXnXbXbXbXbXbXbXbXbXbXbXbXbXbXbXbXbXbXbXbXCXbXbXbXbXNXbXbXbXbXbXbXDXbXbXbXDXbXbXbXVXcXVXbXDXnXPXU.; q A O.8.r.j.M.Z.].C.M.M.N.9.4.@. .Z w V R X.8.T.XX>X,X%X$X%X,XeXwXT.Q.>.X.X.H N.3XL k z.wXJXbXbXbXbXPXDXbXbXbXbXDXNXbXbXDXbXbXPXbXbXbXbXbXNXbXbXDXbXbXDXbXbXbXbXbXbXbXbXnXbXnXbXnXnXnXnXnXnXvXxXnXxXxXxXxXxXxXjXjX",
"nXvXxXVXvXnXnXnXnXnXnXnXnXbXbXnXbXbXbXbXbXbXbXbXbXbXbXbXbXbXbXbXbXbXbXbXbXbXbXDXbXbXDXbXbXbXbXbXbXbXNXbXbXbXNXbXbXbXNXnXbXDXCX>.# X & ;  .6.r.s.M.Z.Z.h.a.r. .C ; ; & q ) 8.r.g.T.XX*X*X%X3X%XeX1X8XXXm.y.>.>.8.}.A.5.5.z.|.VXbXbXPXbXbXbXbXNXbXbXbXbXbXbXbXbXVXbXbXbXbXDXbXbXDXbXbXbXCXbXbXbXbXbXbXbXbXbXbXnXbXbXnXnXbXnXvXnXvXvXxXxXxXxXxXxXmXxXxX",
"nXxXxXvXvXnXnXnXnXnXnXbXnXbXnXbXnXbXbXbXbXbXbXbXbXbXbXbXbXbXbXbXbXbXbXbXbXbXbXbXbXbXbXbXbXbXbXbXNXbXbXbXbXVXbXDXbXbXbXbXbXbXCX$.q ; - & ; A 4.9.d.f.N.f.0.8.K N & ; H 6.i.g.Y.Y.Y.{.#X+X$X$X%X%XeXeX=Xb.>.>.8.t.}.Z.l.5.3.l.BXHXbXbXPXbXbXCXDXbXVXbXDXbXbXbXNXbXbXbXbXVXbXNXbXbXbXDXbXbXbXbXbXbXbXbXbXnXbXbXnXnXnXbXnXvXnXnXnXnXxXxXxXxXxXxXxXxXxXxX",
"xXnXxXxXvXbXnXvXbXnXbXnXbXnXvXbXbXvXbXbXbXbXbXbXbXbXbXbXbXbXbXbXbXbXbXbXbXNXbXbXNXJXbXbXbXbXbXbXbXbXDXbXNXbXbXbXPXnXnXCXJXnXZX>.J K H q ; N K @.a.d.N.s.6.6.O.A A 4.a.h.h.].{..XT.[.[.#X}.#X$X,XeXqXXXm.m.n.$.s.}.w.}.k.3.w.0XDXbXbXPXbXDXbXNXbXbXNXbXbXNXbXDXbXbXPXbXbXbXbXbXbXNXbXVXbXbXbXbXnXbXbXbXbXnXbXvXbXbXnXnXnXnXvXvXnXxXnXxXxXxXxXxXxXmXxX",
"nXnXxXnXnXnXnXnXbXnXbXbXnXbXbXbXbXnXbXbXbXbXbXbXbXbXbXbXbXbXbXbXbXbXbXbXJXbXbXbXDXbXbXbXbXbXbXVXbXPXbXbXbXNXDXbXbXbXDXcXbXbXNXe.@.6.9.y.O.C D P 0.d.M.M.0.0.4.3.5.d.w.f.Z.A.[.[.+XoXM.C.Z.A.S.%XwXBX-XXXQ.x.8.C.l.w.}.w.7.k.=XJXbXPXbXPXbXbXbXPXbXbXbXbXDXbXbXbXbXbXbXbXbXbXbXbXPXbXbXbXbXPXbXbXbXbXnXbXbXbXbXbXnXvXnXbXnXnXnXnXnXvXxXxXxXxXjXxXjXzX",
"nXxXvXnXnXnXnXnXnXbXvXnXbXbXnXbXbXbXbXbXbXbXbXbXbXbXbXbXbXbXbXbXbXbXbXbXNXbXbXNXbXbXCXbXbXbXbXbXbXbXPXbXbXbXbXbXbXDXbXNXbXJXnX8.P 8.q.a.g.9.C K 4.d.M.M.N.q.4.4.9.5.q.q.w.Z.Z.}.[.oXC.N.N.Z.A.$X,XBX=XQ.&XE.b.{.A.w.3XA.3.k.=XJXbXbXbXbXPXbXbXbXbXPXbXbXbXNXbXVXbXPXbXPXbXbXbXbXbXbXbXPXbXbXbXbXbXbXbXbXbXnXbXnXnXbXnXnXnXxXvXxXnXnXxXxXxXxXxXxXxXmX",
"vXxXnXnXvXvXnXnXbXnXvXbXvXbXnXbXbXbXbXbXbXbXbXbXbXbXbXbXbXbXbXbXbXbXbXbXDXbXbXbXbXbXbXbXbXDXbXbXbXPXbXbXbXbXbXbXNXDXNXcXbXJXkX&.K K P 4.5.9.0.D P d.M.A.M.d.P O.3.L L L 6.9.k.q.N.A.C.w.f.Z.#X#X:X0X<X=XXXR.T.#XA.A.A.3Xk.k.XXKXbXbXDXNXbXbXbXPXbXbXbXNXbXbXbXPXbXbXPXbXPXbXbXbXbXbXbXbXbXbXbXbXbXbXbXvXnXbXbXnXbXvXnXnXnXnXnXvXnXxXnXxXxXxXxXxXxXjX",
"xXxXnXnXvXVXnXnXnXbXnXnXnXbXVXvXnXbXbXbXbXbXbXbXbXbXbXbXbXbXbXbXbXbXbXbXbXNXbXbXCXbXbXbXbXbXbXCXbXbXbXbXbXbXPXbXbXbXbXcXbXPXdX@.F C B A K K 4.L P N.A.[.A.q.L L D A C C A H 6.9.3.N.Z.N.l.Z.#X%X:X>X<X&XXXU.T.A.3XA.l.l.Z.z.XXPXbXbXVXbXPXbXbXbXPXbXDXbXPXbXbXbXbXbXbXbXbXbXbXPXbXPXbXbXPXbXbXbXbXnXbXnXbXbXbXvXbXnXnXnXnXvXnXnXnXnXnXxXxXxXxXxXxXxX",
"xXxXvXnXnXnXnXnXnXbXnXbXnXbXbXbXbXnXbXbXbXbXbXbXbXbXbXbXbXbXbXbXbXbXbXbXbXbXNXbXDXbXbXbXbXbXbXCXbXPXbXbXbXbXbXbXbXDXbXnXnXJX7XO.V ; Z & & V C ..L y.}.}.A.d.3.J C B  .Z . . F K w.N.A.A.A.3X%X%X;X,X,X.XQ.Q.{.}.k.3.k.k.A.k.&XDXbXNXbXPXbXbXbXbXPXbXbXbXbXbXbXPXbXNXbXVXbXbXbXPXbXbXbXbXDXbXbXbXbXbXbXnXbXbXnXbXnXbXnXnXvXnXvXnXnXvXnXxXxXxXxXxXmXzX",
"nXvXxXnXvXnXbXnXbXnXbXnXbXnXbXnXbXbXbXbXbXbXbXbXbXbXbXbXbXbXbXbXbXbXbXbXbXVXDXbXbXbXbXbXbXbXbXbXbXbXbXbXPXbXPXbXVXbXDXbXbXVX-X&.C q $.q . * C D L q.|.+X[.M.q.3.L L 4.%.C K r.{.$XS.#XA.A.%XeXeX,X:X*X.X.XQ.+X$X3.D k.k.}.k.<XDXbXDXbXPXbXbXbXbXbXbXPXbXbXbXbXbXDXbXbXbXDXbXbXbXbXDXbXbXbXNXbXbXbXbXbXbXbXbXbXnXbXnXbXnXbXnXxXnXnXxXnXxXxXxXxXxXxXxX",
"xXnXvXnXnXnXnXnXbXvXbXnXbXnXbXbXbXvXbXbXbXbXbXbXbXbXbXbXbXbXbXbXbXbXbXbXDXbXbXbXbXbXbXbXbXbXbXbXbXbXbXPXbXPXbXbXbXDXbXNXnXPX-X&.P J o.K J O.8.0.P r.[.+X#XA.f.5.4.5.5.q.f.M.A.#X3X3X%X%X%X%XeXqX9X&X+X.XQ.{.S.A.k.3.5.k.}.k.8XDXbXbXbXbXbXbXbXPXbXPXbXbXbXbXbXbXbXbXDXbXbXNXbXbXNXbXbXNXbXbXbXbXbXbXbXnXbXnXbXbXnXbXbXvXnXnXnXxXnXxXnXxXxXxXxXxXxXxX",
"xXnXvXnXnXnXnXnXnXbXnXvXbXbXbXnXbXbXbXbXbXbXbXbXbXbXbXbXbXbXbXbXbXbXbXbXbXbXNXbXbXbXbXbXbXbXbXbXPXbXbXbXbXbXbXbXbXbXbXCXnXPX'.8.&.P P 4.4.5.9.9.O.q.}.$X|.A.f.q.5.5.q.5.w.f.Z.3X3X$X%X%X,XeXeXqX9X1XXXT.XX#X%XN.N.Z.3.w.}.j.MXDXbXbXPXbXPXbXbXbXbXbXPXbXbXbXPXbXbXNXbXbXbXbXbXbXbXbXDXbXbXVXbXbXbXvXbXbXbXbXnXnXbXnXnXvXnXnXnXvXvXxXxXxXxXxXxXxXjXxX",
"nXnXnXnXvXnXnXvXnXbXnXbXvXnXbXbXnXnXbXbXbXbXbXbXbXbXbXbXbXbXbXbXbXbXbXbXbXbXbXbXbXbXbXbXbXbXbXbXbXbXbXbXbXNXbXbXPXbXbXNXbXPXQ.8.4.P P 3.3.0.d.0.4.d.}.3X|.}.Z.f.w.q.k.w.N.Z.Z.A.3X%X>X>X<X0XqXqXqX>XXXT.Q.XX&Xh.w.Z.z.l.A.l.NXbXbXbXbXPXbXbXbXDXbXPXDXbXNXbXbXDXbXbXbXbXbXbXbXPXbXPXbXVXNXbXbXbXbXbXbXbXbXbXbXbXbXbXnXvXnXnXbXvXxXbXxXxXxXxXxXxXxXzX",
"nXnXnXvXbXnXnXbXbXnXbXnXbXbXbXbXbXbXbXbXbXbXbXbXbXbXbXbXbXbXbXbXbXbXbXbXbXbXbXbXbXbXbXbXbXbXbXbXbXbXbXbXbXbXbXbXDXbXbXNXbXVXR.8.0.4.4.3.5.q.d.0.5.N. X$XoX}.}.Z.N.N.w.q.w.w.Z.A.}.OX>X=XwXwX0XqX9XwX.XY.T.Q.*XM.w.w.k.A.l.A.kXDXPXbXbXbXbXbXNXbXbXbXbXbXbXbXNXbXbXbXPXbXPXbXbXbXbXbXbXbXbXbXbXbXbXbXbXbXnXnXbXnXnXnXnXbXnXvXnXnXxXxXxXxXxXxXzXxXxXmX",
"nXxXnXvXnXnXbXnXbXnXnXbXnXbXbXnXbXbXbXbXbXbXbXbXbXbXbXbXbXbXbXbXbXbXbXbXbXbXbXbXbXbXbXbXbXbXbXbXbXbXbXPXNXbXbXbXNXbXcXbXvXJXE.8.4.0.5.0.0.w.d.0.0.Z.}.$X$X|.|.A.Z.A.A.Z.Z.A.A.A.}.%X>X<XwXwXwX9X0XwXM.Y.T.R.XXM.w.l.l.A.l.}.kXbXbXbXVXbXDXbXbXbXbXDXbXbXPXbXbXbXbXPXbXPXbXbXbXbXbXbXbXbXbXbXbXbXbXbXbXbXbXbXbXnXnXbXbXnXnXnXnXnXbXxXxXxXxXxXxXjXxXjX",
"nXvXnXnXbXnXnXnXnXvXbXnXbXbXbXbXbXbXbXbXbXbXbXbXbXbXbXbXbXbXbXbXbXbXbXbXbXbXbXbXbXbXbXbXbXbXbXbXbXbXbXbXJXbXbXNXNXVXbXbXVXVXE.8.3.5.0.q.q.N.q.0.0.Z.|.$X+XoX$XA.M.Z.A.}.S.A.}.#X+X%X=XwX<X>X>XwXwX*XV.m.E.Q.XXN.l.%X$Xl.l.M.kXNXbXbXbXbXbXNXbXNXbXbXNXbXbXbXVXbXbXbXbXbXbXbXPXbXbXbXNXbXbXbXbXbXbXbXbXbXbXbXbXbXbXbXnXbXbXnXnXvXbXxXxXxXxXxXxXxXxXxX",
"nXnXvXxXnXnXnXnXbXnXnXnXVXbXbXbXnXbXbXbXbXbXbXbXbXbXbXbXbXbXbXbXbXbXbXbXbXbXbXbXbXbXbXbXbXbXbXbXbXbXbXbXbXPXDXbXDXbXbXbXbXCXU.6.4.0.q.N.M.w.9.0.a.].|.OX+XOX|. Xf.l.Z.A. X X|.2X2X,X1X0XwX>X=X;X%X8XT.b.E.Q.[.a.w.eX3Xl.A.t.-XHXbXbXbXbXbXbXbXbXbXbXPXbXbXbXPXbXbXPXbXbXbXbXNXbXbXbXbXbXJXbXbXbXbXbXbXbXvXnXbXnXnXbXnXnXbXxXbXxXxXbXxXxXxXxXxXxXzXjX",
"nXnXnXnXVXnXnXnXnXbXvXbXnXbXnXbXbXbXbXbXbXbXbXbXbXbXbXbXbXbXbXbXbXbXbXbXbXbXbXbXbXbXbXbXbXbXbXbXbXbXbXbXbXbXbXbXbXVXVXbXbXbXb.8.0.N.N.w.M.f.0.4.j.l.|.&X2X2X Xf.w.f.M.A.|.|.3X&X,X1X0X0X0X=X*X*X,XXXN.y.m.R.T.j.A.%X#Xl.|.$.sXNXPXbXPXbXbXPXbXDXbXbXbXbXbXbXbXbXbXVXbXbXDXbXbXDXPXbXPXbXbXbXbXbXbXbXbXbXbXbXnXbXbXbXnXnXxXbXxXxXxXxXxXxXxXxXxXxXxXxX",
"vXnXnXvXvXnXnXnXbXbXnXbXbXvXbXbXnXbXbXbXbXbXbXbXbXbXbXbXbXbXbXbXbXbXbXbXbXbXbXbXbXbXbXbXbXbXbXbXbXbXbXPXbXDXbXbXbXVXbXbXDXNXb.8.q.N.w.N.M.d.6.6.j.].|.:X:X+XA.q.q.q.j.Z. X3X&X&X<X<XMXMXwX>X@X%X;X{.y.s.Y.E.XX X3X3X+XZ.Y.) mXNXbXPXbXbXbXbXPXbXPXbXbXbXbXbXbXbXbXbXDXbXbXNXbXbXnXbXnXbXbXnXbXnXnXbXnXbXnXvXnXnXnXxXxXxXxXbXbXbXbXxXxXxXvXxXxXxXmXxX",
"xXnXnXnXnXnXnXnXvXnXbXnXbXbXnXbXbXbXbXbXbXbXbXbXbXbXbXbXbXbXbXbXbXbXbXbXbXbXbXbXbXbXbXbXbXbXbXbXbXbXbXbXbXbXNXbXDXbXbXbXbXbXb.r.w.w.w.N.h.j.4.6.g. X|.2X:X|.}.f.7.a.j.h.].&X:X:X:X0XMXwXwX>X,XeXXXT.d.i.i.Q.XXC.}.%X%X3Xd.) dXJXbXbXbXbXbXbXbXbXbXbXbXPXbXbXbXPXbXNXbXbXbXbXbXbXnXxXvXnXxXvXnXxXnXnXnXvXxXvXxXxXzXjXjXxXmXxXxXxXxXxXbXxXxXxXmXxXxXxX",
"xXvXnXnXbXnXnXnXbXnXnXbXbXbXnXbXbXbXbXbXbXbXbXbXbXbXbXbXbXNXbXbXDXbXbXDXDXbXbXDXbXbXbXbXbXcXbXbXbXbXbXbXbXDXbXbXNXbXnXDXcXCXb.r.q.d.f.f.j.a.0.r.f.Y.&X:X:X&X|.Z.3.5.9.f.h.|. X&X&X1X1XMXwX=XwX=X+XM.N.XXXXXX8X XA.$X,X,Xf.X.7XZXbXDXbXbXbXbXbXNXbXnXbXbXbXbXNXDXbXbXbXbXDXbXbXvXxXmXjXmXmXmXfXjXxXfXjXjXjXfXfXsXgXdXgXsXdXjXxXvXnXvXxXxXxXxXxXjXzXxX",
"vXnXnXnXvXnXbXnXbXnXvXbXbXnXbXbXbXnXbXbXbXnXbXbXbXbXbXbXbXbXbXbXbXbXbXbXbXbXbXbXbXbXbXbXbXbXbXbXbXbXbXbXbXbXNXbXbXDXbXHXcXCXU.8.q.a.d.f.a.9.4.r.f.l. X&X&X&X3X|.5.D 5.a.j.h. X|.&X&X1X1X<XwX<X=X@X.XQ.=X&X&X=X|.A.3X3X,XT.o.fXcXbXbXbXbXbXbXbXbXbXxXnXbXbXbXbXbXbXbXnXbXbXbXnXxXfXsXgXgXgXsXgXdXgXfXfXlXfXfXsX7XsXsXuX7X7XdXjXxXnXvXxXxXxXnXxXxXxXmX",
"nXnXvXnXnXnXnXnXbXnXnXbXnXbXbXbXnXbXbXbXbXnXbXbXbXbXbXbXbXbXbXbXbXbXbXbXbXnXbXbXbXnXbXbXbXbXbXbXbXbXbXbXbXbXDXbXbXbXbXHXbXZXb.6.9.a.a.a.a.9.4.9.r.h.l.l.]. X3X&Xa.D L 5.j.f.].Z. X&X&X&X>X=X=X&X@XXXXXwX*X=X8X$X3X3X$X,Xg.>.fXCXbXbXbXVXNXbXcXbXcXjXnXVXbXbXbXNXbXbXbXbXbXPXnXxXfXsX`.7XuX7X-XsXsXsXsXsXfXsXsX7XpX7X`.-X7XgXjXvXxXnXxXxXxXxXxXxXxXjX",
"vXxXvXbXnXnXnXbXbXnXbXnXbXbXnXbXbXbXbXbXbXbXbXbXbXbXbXnXnXnXcXnXnXnXnXvXnXnXnXvXnXnXnXnXxXxXnXbXnXnXbXbXbXbXbXbXDXbXbXNXbXVXE.@.9.a.q.w.q.0...O.6.9.a.j.j.l.].j.7.5.7.4.q.j.M. X X|.|.&X*X>X=X*X@X@X@X=X&XXX=X$Xl.3X2X|.m.1.jXNXNXNXbXbXbXNXbXcXjXjXxXcXbXDXbXbXbXbXvXnXbXbXnXxXjX7X`.uXsX5XpXgXsXsXsXdXdXsXgXsXsXsXsXuXsXfXxXvXnXnXxXxXxXxXxXnXxXxX",
"vXxXnXnXnXnXnXnXvXvXbXbXcXnXnXbXnXvXbXbXnXbXbXbXbXbXnXxXxXjXxXxXxXzXmXmXzXjXmXfXmXjXfXjXjXlXxXlXjXzXnXbXbXbXHXbXVXVXbXDXbXVXE...6.9.q.q.9.4.K D 4.7.6.6.E C D L 7.h.9.L 0.a.f.A. X X[.+X&X&X*X*X=X@X-X@X&XXX-X#X}.3X3X|.M.t.bXbXNXbXbXbXbXbXcXkX8X7XhXVXDXDXbXbXbXbXnXbXbXbXbXvXfXdXsXgXdXgXgXsXsXfXfXjXmXfXfXfXfXfXsXgXdXmXxXxXnXxXnXnXxXzXzXmXmXzX",
"xXnXnXnXbXnXnXnXbXbXnXnXcXcXnXbXbXbXbXnXbXnXbXvXbXbXxXxXfXfXdXdXfXfXfXfXfXfXfXdXsXsXsXsXgXgXdXfXdXjXxXnXbXbXbXbXbXbXbXbXbXJXR. .4.9.9.q.7...D C A K A A % b L 7.h.h.j.6.P 9.j.h.]. X[.|.OXoXXX&X=X=X@X@X*X@X=X[.A.{.|.;XT.U.bXVXbXDXDXbXNXbXNXmX8X8X7XxXbXbXVXbXbXnXbXnXbXbXbXnXjXfXfXfXjXfXfXfXmXlXjXxXxXxXxXmXjXjXzXjXzXjXxXxXxXxXmXxXxXmXfXfXjXjX",
"xXvXnXnXnXnXnXnXnXVXxXjXcXcXcXbXbXbXbXnXnXbXnXbXbXnXxXfXgXsXsXpXsXpXuXsXsXdXsXsX7X`.uX7X7XsXsXsXsXfXzXcXbXbXbXbXbXbXbXNXvXIXR...4.6.0.5.5.4...C * & = ; A d.g.g.l.h.h.f.P 4.a.N.]. X|.|.oXoX+X@X@X=X@X@XOXXX=XXXw.f.%X,XE.Q.bXnXNXbXDXDXbXNXcXkX8X6X8XhXbXbXbXbXbXbXnXnXbXDXbXnXnXxXxXxXxXxXmXhXxXxXxXxXxXxXxXxXxXxXxXxXmXxXxXxXjXfXfXzXjXmXfXfXfXfX",
"xXxXnXvXvXbXnXnXbXnXxXkXhXnXcXcXvXbXbXnXnXnXbXbXbXnXxXfXgX7X7X-X5X-X`.7XsXgXsXsX7X7X7X`.uXsXsXsXsXfXmXxXbXbXbXbXbXbXHXvXbXIXR.X.o.6.0.9.4.9.6.K C C  .D p.h.G.h.G.g.h.M.9.L 9.a.j. X{. X|.XX@X@X-X@X=X=XoXQ.@X[.w.+X,X8XM.7XJXVXbXDXbXbXbXbXkXkX6X4X8XkXcXbXNXbXbXbXbXnXbXNXbXnXxXnXxXxXxXxXxXmXmXjXmXzXzXjXxXjXxXxXxXmXzXjXmXzXfXfXfXfXfXfXfXgXgXsX",
"xXxXnXvXnXnXnXnXnXnXjXhXdXhXcXcXbXnXbXnXnXnXbXbXbXnXxXfXgXsXsXsXsXsXsXsXgXfXfXfXuXsXsXgXdXdXfXgXfXfXmXnXbXbXbXbXbXbXbXNXDXHX-X) P O.0.5.r.9...X. .@.e.o.@.i.G.Z.h.G.M.Y.g.7.4.0.f.].{.[.|.XXXX&X@X@XXX@XXX@X@X@X@X,X@X#XE.nXVXnXbXbXcXVXVXVXkX8X6XS.6XhXVXVXkXVXbXbXnXbXbXbXbXvXxXzXxXzXxXmXfXfXfXfXmXxXjXfXlXlXjXmXxXfXjXjXfXjXfXsXdXfXmXgXgXsXgXuX",
"xXxXnXvXnXnXnXnXbXxXkX8X8XdXxXnXbXbXbXnXvXnXnXbXbXnXvXjXfXfXfXfXfXfXfXfXmXzXmXmXfXfXfXfXfXjXjXmXjXxXxXbXbXbXbXbXbXbXnXvXnXbX7X+.K O.8.6.9.9.6.....@.8.o.6.y.g.g.M.h.Y.h.].y.L 4.a.M.{.[.XXXXXX&X@XXXXXXXXXXX@X=X@X=X%X.X%.CXvXcXPXnXcXVXVXZXkX8XS.S.4XhXVXVXVXVXbXbXnXbXbXbXbXnXxXzXjXfXfXfXfXdXfXfXfXfXjXjXjXfXzXmXjXmXfXfXjXlXfXfXdXfXfXfXfXdXsXfX",
"xXxXnXnXvXnXnXnXcXnXkX6X6X7XxXcXbXbXbXbXvXnXvXbXbXbXnXxXmXmXzXxXzXxXjXmXxXxXnXvXjXmXmXxXxXxXxXxXvXxXxXcXnXnXnXnXnXxXxXxXvXxXkX@.K ..4.0.6.6.@...o.6.8...o.r.r.a.r.G.d.i.Y.g.6.O.9.M.{.[.&XXX&X-X@X#XXXQ.T..XXX=X%X%X;Xb./ 5XCXbXbXNXVXVXkXkXkX6XS.S.S.8XhXxXcXVXbXnXvXnXbXbXbXnXxXxXjXjXmXfXfXfXlXfXfXhXmXfXjXfXfXjXzXmXmXmXjXjXlXfXlXmXmXlXfXfXfXfX",
"jXxXnXnXnXbXnXnXxXxXkX6X4X8XxXxXnXbXbXnXnXnXnXbXbXbXnXxXzXxXmXxXxXxXxXzXxXxXxXxXxXxXxXxXxXxXzXmXzXxXxXxXxXzXxXxXzXmXmXzXzXmXNX>. .O.O.6.6.O.#.o.o.O.6.6.a.Z.l.G.g.r.e.r.g.g.r.6.0.h.T.[.oX.X&X&X@XXX.X.X.X.XXX#X%X#XXX$./ 1.VXbXbXbXVXVXVXkX8X6XS.V.V.7XhXVXcXVXbXbXbXbXbXbXbXbXnXxXxXxXxXxXxXmXxXjXxXxXzXjXxXxXzXxXxXjXzXmXzXxXjXfXjXjXmXxXzXjXmXjX",
"xXxXvXnXnXnXnXnXcXkX8X6XS.5XhXxXnXbXbXbXbXbXnXbXbXbXnXnXjXxXzXxXxXxXjXfXjXzXxXxXmXxXjXzXjXjXjXfXfXjXzXxXmXxXjXjXjXfXfXfXzXfXcXn.H &.o...6.X.X.o.L ..7.9.6.7.7.j.G.j.r.r.d.y.i.8.9.s.M..X[..XXXXX=XXX.X.X.X#X#XXX#XOXm./ | ^ '.CXcXnXbXNXkX8X4XS.V.V.B.5XhXVXVXnXbXbXnXnXnXbXbXbXvXnXxXvXxXnXnXnXxXxXnXnXnXvXxXnXxXnXnXvXxXxXnXvXvXxXxXjXxXxXxXmXjXjX",
"zXxXnXnXvXnXVXnXxXkX6XS.S.6X7XcXbXnXbXbXnXnXnXbXbXbXnXxXjXjXfXfXjXlXfXfXfXfXxXmXzXjXfXfXfXfXfXfXfXfXmXjXxXmXzXfXfXfXdXfXjXfXxXR.H &.O.J  .X.K K B C B C E E E ..6.r.9.6.y.r.g.9.9.m.M.{.T..XXXXX#XQ.Q.T.T..XXXXX#X#X$./ | ] :.HXVXbXNXbXVX7X4XV.V.V.B.4XhXxXVXbXbXbXnXbXbXbXbXbXNXnXnXnXnXbXnXbXnXbXbXbXbXnXnXbXnXnXnXvXnXxXnXnXnXnXxXvXxXxXxXxXxXzX",
"xXxXnXvXnXnXvXvXcX8X6XS.V.4X7XkXnXbXbXbXbXnXnXvXnXnXxXxXzXfXfXjXfXfXfXfXfXmXjXzXzXmXmXfXfXmXfXdXgXfXjXxXxXmXjXmXzXmXjXjXzXjXjX7XX.X.&.A K X.J F B C B B B S D S D D ....r.r.6.r.r.N.M.T.T..XXXXX.X.XT.M.T..XXX.X+Xb.G | ^ { Q `.PXNXbXcXhX4XV.V.B.B.B.5X7XjXVXbXvXbXbXnXbXbXbXbXbXnXvXnXbXnXnXcXnXvXnXnXnXnXbXnXbXbXbXnXnXnXnXnXnXnXxXvXxXxXxXmXzXmX",
"jXxXnXnXnXnXnXnXhX8X#XS.V.V.5XzXnXbXbXbXvXnXnXbXbXbXbXxXzXjXfXxXzXjXjXfXfXmXxXxXvXxXjXzXjXjXjXfXfXmXxXxXxXzXxXvXxXxXxXmXxXzXxXnX%.P 6.K K ( V h ; h ; x N v S D E S B S o.r.y.9.s.M.T.T.T.Y..X.X.XT.T.T.T..X.X{.#X( s ] } } u x.PXNXcXxXhX4XB.B.V.B.c.4X5XjXbXDXbXbXnXbXnXbXbXbXnXxXxXxXxXxXxXzXxXxXvXnXbXbXnXbXnXbXbXnXnXnXnXvXnXxXxXxXxXvXxXxXxXxX",
"vXxXxXnXxXnXnXjXdX6XS.V.V.V.4X5XcXcXnXnXbXnXnXnXbXbXnXnXxXxXxXxXmXxXxXzXxXxXxXvXnXnXvXxXxXxXxXxXjXxXvXnXnXnXvXnXnXnXbXbXnXnXbXPXn.K 8.P K H ; ; B D D E m E 7.G.j.k.k.9.7.e.r.r.s.N.Y.M.Y.M.T..XT.M.T.T.M..X{.#X1.e ( | | ] u G ).IXcXjX5XW.B.B.c.B.B.W.hXxXVXVXbXbXvXbXbXbXbXbXnXxXxXjXxXjXzXjXjXjXxXxXnXnXnXxXbXnXbXnXnXbXnXxXnXxXxXxXxXxXxXxXjXzX",
"vXxXxXnXvXnXcXhX8X4XV.V.B.V.4XhXxXcXVXnXnXnXnXbXnXbXnXnXnXxXnXnXnXnXxXxXvXnXnXbXbXnXbXnXnXnXxXvXvXvXbXbXbXbXbXbXbXnXbXbXbXnXbXPX'.K 4.4.K G J C R E ..7.7.k.k.p.7.7.G.j.9.6.6.r.9.s.M.Y.T.m.V.T.T.T.M.m.T.Q.T.M.G G ^ ^ | ^ 9 Q { U.CXjX5XW.c.B.c.c.c.W.5XVXxXVXbXbXnXnXbXbXbXvXnXxXzXjXxXmXmXxXjXjXxXvXbXbXbXnXnXbXnXnXnXnXnXvXnXnXxXxXxXxXxXxXxXxX",
"xXxXcXcXvXnXcXhX5XQ.V.B.B.B.4X5XnXcXbXbXbXnXnXnXbXbXbXnXnXnXnXnXnXbXcXnXnXnXnXbXbXbXnXbXbXnXbXbXnXbXbXbXbXbXbXbXbXnXbXbXbXbXbXJXkX$.O.8.o.K  .A A E #.7.7.p.7.7.7.k.G.j.g.9.6.6.r.s.N.N.m.N.N.M.T.m.N.N.M.T.T.&.0 ^ _ _ / Q 7 Q } T U.hX5XB.v.c.c.c.c.W.5XhXVXcXbXnXnXbXnXbXbXbXxXjXjXzXjXzXjXxXzXxXxXvXbXbXbXbXbXnXbXvXvXnXnXnXvXxXnXxXvXmXxXxXxXxX",
"xXxXcXxXvXbXkX7X4XB.B.B.B.B.W.pXjXnXnXnXnXnXnXbXbXnXbXnXnXxXnXxXxXxXxXxXxXnXvXbXbXbXbXbXbXbXbXbXbXbXbXbXnXbXbXbXbXbXbXbXbXbXnXbXZXt.K &...K K K D E 7.7.#.7.7.E p.j.j.l.].d.6.o.0.y.m.b.b.y.b.N.V.m.b.V.M.M.b.w s / | _ Y s 3 Z _ T ' x.W.v.x.v.c.c.v.5XhXhXVXVXbXbXnXnXbXbXbXbXxXxXxXxXxXxXxXvXxXxXxXvXbXbXbXnXvXbXnXbXnXnXnXnXnXxXvXxXxXxXxXxXmXxX",
"xXhXcXnXnXnXhX5XW.B.c.c.B.c.W.8XxXnXnXbXnXnXxXbXbXnXbXnXxXjXxXxXxXxXmXxXxXxXnXbXbXbXbXbXbXbXbXbXbXbXbXnXbXbXbXbXVXnXbXbXbXbXnXnXIXR.H o. .K O.P D D 7.7.7.7.7.k.9.s.j.s.M.m.y.O.O.8.t.8.8.4.0.N.Y.y.m.N.m.Y.+.- / I ^ ! p s : d ! s ^ ) ;.v.x.x.v.v.J.5XhXxXVXbXnXbXvXbXbXbXbXbXcXxXxXxXnXxXxXnXxXxXzXxXvXxXvXxXxXnXnXnXnXnXvXnXnXxXxXxXxXxXxXxXjXzX",
"xXxXxXnXnXnX5X5XB.B.c.c.c.c.W.5XjXxXbXnXbXnXxXbXbXbXnXvXxXxXzXfXmXjXzXjXxXxXbXnXbXbXbXbXbXbXbXbXbXbXbXbXnXbXbXbXbXbXbXbXbXbXbXbXvXjXX.J  .o.O.O.H A A D E ..o.7.5.r.q.j.d.h.g.9.P X.O.O.&.8.b.N.y.r.b.y.y.i.0 p W Q W I I t < t U I I / { 2.x.v.v.W.W.5XhXVXbXbXbXbXnXnXbXbXbXnXxXjXfXmXxXjXxXvXjXmXmXmXjXhXjXzXxXvXbXnXnXnXnXvXnXnXnXxXxXxXxXxXxXxX",
"xXxXxXnXnXvX5X5Xv.c.c.v.c.c.W.7XjXnXbXnXnXnXnXbXbXbXnXvXxXfXxXfXzXmXmXjXjXvXnXbXbXbXbXbXbXPXbXbXbXbXbXbXbXbXbXbXbXbXbXbXbXbXbXbXvXUXU.V J o.O.O.H J N q v ( X.o.4.5.9.q.d.d.r.8.&.K K K O.8.b.y.8.y.y.0.t.+.& Q s Q I a s 9 7 9 t s s / ^ ] } v.v.W.5XfXvXbXbXDXbXbXbXnXbXbXbXbXjXfXdXdXdXfXfXfXmXdXdXgXgXgXgXfXjXvXnXbXnXnXnXvXvXxXxXxXxXjXxXxXxXxX",
"xXxXcXnXnXxXgX'.v.v.c.v.c.c.W.hXxXnXbXbXbXnXnXnXnXvXnXnXxXxXxXxXxXxXvXxXxXnXnXbXbXbXbXbXbXbXbXbXbXbXbXbXbXbXbXbXbXbXbXbXbXbXbXbXbXnXbX+.V P O.P K A A C Z Z D o.8.9.5.4.0.g.y.8.&.X.+.X.&.&.e.8.8.e.8.8.n.w u s Q s p p 9 0 7 9 t t 0 s ^ ] ] } J.5XgXjXvXnXbXbXbXbXnXbXbXbXbXnXjXmX7XgXgXdXdXfXjXdX7XgXsXsXfXfXhXxXnXnXnXnXvXxXnXnXvXxXxXxXxXxXmXxX",
"jXxXvXnXVXjXpX'.v.v.x.x.x.H.4XhXxXnXbXbXbXnXvXnXbXbXnXvXxXxXxXxXxXxXxXnXnXnXbXnXnXbXbXbXbXbXbXbXbXbXbXbXbXbXbXbXbXbXbXbXbXbXbXbXbXbXbXxX/ H o.P K K  .K  . ...6.a.a.r.4.4.9.y.t.8.e.o.K %.&.%.@.8.8.o.%.<.> u W I p t e e 7 0 9 e 0 6 9 d Q ^ ] 2.'.jXxXVXbXbXbXbXnXnXbXbXbXnXnXjXdXgXsXsXfXfXfXfXfXfXgXgXdXdXfXxXxXnXnXnXnXnXnXvXxXnXxXxXxXxXxXjXmX",
"xXxXvXnXxXcXdX'.J.x.x.v.v.W.5XgXvXnXbXnXbXnXbXnXnXbXnXxXxXmXxXzXvXxXxXxXxXmXzXxXxXxXnXnXbXbXbXbXbXbXbXbXbXbXbXbXbXbXbXbXbXbXbXbXPXxXCXPX'.G K O.L K @.6.6.6.r.9.a.h.d.6.4.8.m.y.y.8.K o.&.o.O.&.&.&.X.).u 3 W s p t e e 9 7 7 0 0 0 5 0 f w I ^ ] | /.VXVXcXbXbXbXxXbXbXbXbXbXbXxXfXfXfXfXfXjXxXjXjXjXjXfXfXmXfXxXvXnXnXvXnXvXnXxXxXnXxXxXxXxXxXzXxX",
"xXxXcXnXxXVXhX5XW.H.v.v.J.5X5XSXbXbXbXbXvXnXnXbXnXbXnXxXmXfXmXfXjXxXzXmXfXfXfXfXfXzXxXnXbXbXbXbXbXbXbXbXbXbXbXbXbXbXbXbXbXbXbXbXnXbXCXnXNX@.K O.....5.9.a.a.j.f.h.h.h.9.O.8.y.i.y.o.K %.o.X.H X.) G W.L.o e d p e 9 9 9 8 7 7 0 0 - g 0 0 u d d G | | W.bXVXnXbXDXbXbXbXbXbXbXnXbXxXxXxXxXxXxXvXxXnXvXxXxXxXvXxXvXnXbXnXnXnXnXnXxXxXnXxXxXxXxXxXxXxX",
"hXxXxXxXxXxXjXgX5XW.v.W.W.5XhXVXbXnXvXbXnXnXbXnXbXbXvXjXfXfXlXsXfXfXfXfXdXdXgXdXdXfXmXnXbXbXbXbXbXbXbXbXbXbXbXbXbXbXbXbXbXbXbXbXPXnXnXbXPXR.H O.6.4.a.s.h.l.].G.].g.M.s.0.r.e.e.&.X.%.&.X.H K  .G >.SXU 0 e u u r 7 7 0 0 7 7 0 0 g g 5 0 w e 9 d I | G K.nXJXbXbXbXnXnXnXNXDXnXNXcXnXnXbXnXbXnXnXbXnXbXvXbXbXnXnXnXnXvXnXvXvXnXnXxXvXxXxXxXxXxXxXxX",
"vXxXxXnXvXnXvXhX5X5XW.5X5XgXhXLXbXbXbXnXnXnXnXbXbXbXvXjXfXsXdXsXfXfXfXfXdXlXsXfXfXfXxXnXbXbXbXbXbXbXbXbXbXbXbXbXbXbXbXbXbXbXbXbXnXPXbXbXbXcX$.8.8.4.9.d.f.M.Y. X XY.Y.h.r.y.y.%.X.o.8.&.K K H H } lX!., 9 w 9 u 0 7 7 7 7 6 7 0 6 @ @ @ 5 6 0 9 e s s ^ _ <.gXPXxXbXnXbXbXbXbXbXbXbXbXbXbXbXbXbXbXvXbXbXbXbXnXnXnXbXnXnXxXvXnXnXnXxXnXxXxXxXxXxXjXjX",
"xXxXxXnXnXnXnXvXhXpXpX5XhXVXVXhXbXbXnXbXbXnXnXnXnXbXxXzXfXfXfXgXfXmXmXlXfXfXfXfXfXmXxXxXbXbXDXbXbXbXbXbXbXbXbXbXbXbXbXbXbXbXbXbXNXxXbXnXIXmX+.%.%.@.0.q.f.h.Y..X XG.r.h.g.i.m.%.P &.&.&.H ) ( ;.).KX` > 0 d 7 e 7 7 7 7 5 7 7 0 g @ @ 3 g @ 5 0 i f d a / / ;.`.bXIXbXbXPXnXbXbXbXbXbXbXbXbXbXbXnXbXbXbXnXbXbXbXbXnXnXnXnXnXnXnXvXnXnXxXxXxXxXxXzXxX",
"xXxXxXnXnXnXbXnXzXhXhXgXhXxXVXhXbXbXbXbXbXnXnXbXcXbXbXxXxXjXjXjXxXxXxXxXxXxXjXxXxXxXxXbXbXbXbXbXbXbXbXbXbXbXbXbXbXbXbXbXbXbXbXbXnXbXxXIX'.Z Z e.@...6.y.d.d.M.Y.h.a.6.g.g.d.t.o.X.&.%.H H Z 1.^.FX_.< r i r e 7 0 7 5 5 5 7 7 0 @ @ @ @ g 5 - 3 6 u u d d I } ^ '.xXbXnXDXnXbXbXbXbXbXbXbXbXbXbXbXbXbXbXnXvXvXnXnXbXvXnXnXnXnXxXxXnXnXxXvXxXxXxXmXxX",
"xXxXnXnXnXnXnXnXbXxXhXxXnXVXVXVXbXnXbXnXbXbXbXxXbXbXbXbXxXvXvXxXvXnXnXbXbXnXvXnXnXvXbXbXbXbXbXbXbXbXbXbXbXbXbXbXbXbXbXbXbXbXbXbXnXPXIXI.3 @ - @.8.K 4.r.9.y.g.g.g.r.g.r.r.i.8.H %.8.o.H H x.^.rXKX:.@ 6 0 e 5 8 5 0 5 5 7 5 6 0 @ @ @ @ g g 3 5 - - 0 e p s I ^ ] `.PXbXbXbXPXbXbXbXbXbXbXbXbXnXbXbXbXbXbXDXbXbXnXbXbXvXnXnXnXvXxXxXxXxXxXxXxXxXxXxX",
"xXvXnXvXnXnXnXnXnXnXnXbXnXnXvXbXbXnXbXbXnXbXbXbXbXbXbXbXbXbXbXnXbXbXnXbXbXvXbXbXbXbXbXbXbXbXbXbXbXbXbXbXbXbXbXbXbXbXbXbXbXbXbXvXJXcX,.O 5 @ O G %.....8.8.6.8.y.r.e.i.e.t.b.K o.@.X.A ( :.tXtXKX_.> 7 8 r e < 7 7 5 7 5 5 7 7 5 @ @ @ @ @ @ g g 3 6 0 9 i a s s G [ '.JXbXnXDXbXPXbXbXDXxXnXPXnXbXbXnXbXbXbXbXvXbXnXvXnXnXbXnXnXnXxXxXxXxXxXxXxXxXxX",
"xXxXnXnXnXvXnXnXvXbXbXnXvXnXnXbXbXbXnXbXbXbXbXnXnXbXnXbXnXbXbXbXbXbXbXbXbXbXbXbXbXbXbXbXbXbXbXbXbXbXbXbXbXbXbXbXnXxXbXDXxXbXbXIXdXQ   g 6 #   i +.X. .o.o. .o.O.8.6.6.8.t.%.H %.X.( A ;.tX^.zXFX[ @ 8 8 8 r 8 < 7 7 5 5 - 7 7 - @ + @ @ # g g g 3 g 0 0 9 i p s I Q / W.IXbXnXbXnXnXbXnXIXbXxXPXbXnXbXbXbXnXbXnXnXbXbXnXnXvXvXnXxXnXxXxXxXxXxXxXxXmX",
"xXxXnXnXnXnXnXnXvXnXbXnXbXnXbXbXbXbXbXbXbXvXbXbXbXbXbXbXbXbXvXbXbXbXbXbXbXbXbXbXbXbXbXbXbXbXbXbXbXbXbXbXbXbXbXbXbXIXxXVXCXnXIX).9 $ 6 @ O 3 . d +.( (  . .Z H ( o.%.%.>.( N X.X.A J -.yX_.uXUX_.y 8 7 5 8 7 8 7 7 < 5 5 3 7 3 3 @ # # @ @ O @ @ g 5 7 0 e e i p s d I I K.bXVXnXnXDXnXPXxXbXbXnXbXbXbXbXbXbXbXnXbXnXnXbXnXnXnXnXvXxXxXxXxXxXxXxXxXxX",
"nXnXnXnXnXnXnXnXnXnXnXbXnXbXbXnXnXbXnXbXbXnXbXnXbXvXnXbXnXbXbXbXbXbXbXbXbXbXbXbXbXbXbXbXbXbXbXbXbXbXbXbXbXbXbXbXbXxXnXbXnXIXU.@ @ O @ # @ g . _ ;.d Z V 2 q A ( #.( +.H w H ( H Z ;.yXyX'.KXuXG.> 9 5 7 e 5 5 5 5 < < 3 5 6 7 @ @ # @ @ @ # @ @ @ - 5 6 9 9 u d d d s Q p ;.sXCXnXPXbXnXPXnXbXDXbXbXnXbXbXnXbXbXvXbXnXnXnXnXnXvXnXxXxXxXxXxXmXxXjXxX",
"xXxXnXxXnXnXnXnXnXnXnXbXbXnXbXnXbXbXbXbXbXvXbXbXbXnXbXnXbXbXbXbXbXbXbXbXbXbXbXbXbXbXbXbXbXbXbXbXbXbXbXbXbXbXbXbXnXIXbXnXPX<.O @ O & 3 # @ : . | F.@ w Z w - ; V V Z q q Z Z Z w +.yXaX).FXlX'.=.+ 7 7 7 7 7 7 < 5 < 7 5 5 5 < @ @ @ @ @ @ O @ @ @ g g 5 6 0 u i f d a d s d ] '.IXxXbXnXbXDXnXbXbXnXbXbXnXbXnXbXnXbXvXnXnXxXnXnXxXxXxXxXxXxXxXxXzXxX",
"nXvXnXvXnXvXnXnXvXbXbXnXnXnXbXbXbXvXnXbXnXbXbXnXbXbXbXbXbXbXbXbXbXbXbXbXbXbXbXbXbXbXbXbXbXbXbXbXbXbXbXbXbXbXbXbXnXnXbXbX:.O O O @ g O # @ O . *.~.7 1 & & - - - 6 d w w V q Z #.!.aX).lXGX'.tX4 < 7 8 7 > 7 7 7 7 < 5 < 5 5 : @ + @ O @ O @ O # @ @ @ 5 5 0 0 0 i d i i s s s ! I.IXHXbXnXbXbXnXbXbXvXbXbXbXbXvXbXnXnXnXnXvXnXnXnXnXxXvXxXxXzXxXxXmX",
"xXnXnXnXvXvXbXnXnXnXbXnXbXbXbXvXbXbXbXbXbXbXnXbXbXnXbXbXbXbXbXbXbXbXbXbXbXbXbXbXbXbXbXbXbXbXbXbXbXbXbXbXbXbXbXbXnXCXxX]   g # @ 7 O O 6 @ . . =.I.i X ; & X X & & - & & 9 Q D.P.rXrX`.KXtXfX=.+ 7 > 7 7 7 7 < 5 5 5 5 5 3 5 : + @ @ O @ O # @ # @ @ 5 5 - f 0 w q 9 u d d d I I s x.FXHXnXbXbXPXbXbXbXnXbXbXnXbXbXnXnXnXnXnXvXxXnXnXxXxXxXxXxXxXxXxX",
"nXxXvXnXnXvXbXnXvXbXnXbXnXvXbXbXnXbXnXbXbXbXbXbXbXbXbXbXbXbXbXbXbXnXbXbXnXbXbXbXbXbXbXbXbXbXbXbXbXbXbXbXbXbXbXbXIX`.s   5 O @ @ @ g O g +     :.!.~ $ & ; & X X X X X # s H.L.yXlX_.KXlX_.aXr 1 7 7 8 < 7 7 7 < < 5 @ g - 5 5 + @ @ @ O @ O O @ @ @ @ g - 3 5 6 f 0 u u p a I I / d -.xXPXxXbXbXbXbXbXbXnXbXbXnXnXbXnXnXvXnXnXxXxXxXxXxXxXxXjXxXjXxX",
"nXxXcXxXvXnXnXnXnXbXnXbXnXbXbXnXbXnXbXnXbXnXbXnXbXbXbXbXbXbXbXbXbXbXbXnXbXbXbXbXbXnXDXbXPXbXnXbXbXJXnXbXVXxXnXIXR.5 O - O O O g g o 5 @ X   3 ,.!.,.X & * & & = X = o q J.(.~.SX_.zXFX_.SXL.> 1 < 1 7 7 7 5 5 5 @ g 5 3 5 5 > @ @ @ @ # # O O @ O @ @ - 3 5 - 5 7 0 0 0 9 i I I Q / s 1.nXJXvXbXbXvXnXbXbXcXnXbXbXbXbXvXbXbXvXxXxXxXxXxXxXxXxXxXxXxX",
"xXzXxXxXnXnXbXvXbXnXnXbXbXbXbXbXvXbXbXnXbXbXbXbXbXbXbXbXbXbXbXbXbXbXnXbXbXnXbXbXbXbXbXbXnXbXJXnXbXbXnXbXxXPXPX<.3 O 3 O O @ 5 @ + @ 5 O O . f H.P.L.s X & X X X X X g H.tXP.SXiXtXUXuXlXGX` + 8 < < 7 7 5 7 5 5 6 5 6 5 7 5 + + O @ O O # O @ O # @ @ @ @ g 3 5 6 7 7 7 9 9 i a Q I | Q >.nXVXbXvXPXbXbXxXCXxXnXbXnXnXvXnXxXvXxXxXxXzXjXmXxXxXjXxXmX",
"fXhXjXxXnXnXnXvXnXbXbXnXbXnXbXnXbXbXbXbXnXbXbXbXvXbXbXbXbXbXbXbXbXnXbXvXnXbXbXnXbXnXCXxXbXnXvXPXxXxXnXPXIX7X] X O g O $ @ @ @ @ O 5 g O O o ^ H.I.K.<.i X & # X X O >.aX).rXGX'.FXzXtXSX(.1 , 7 5 5 7 > < : : @ 5 : : : 5 5 @ @ @ O @ O # O O @ O O @ @ @ : @ - 5 3 5 5 7 0 9 i p s Q ^ ^ :.fXPXnXxXnXxXxXcXnXxXvXvXvXxXxXxXxXxXfXfXfXfXmXzXzXmXzXxX",
"pXsXfXhXnXnXnXnXnXnXvXbXbXnXbXbXnXbXbXnXbXvXbXbXbXbXbXbXbXbXbXbXbXbXbXnXvXbXbXbXbXCXnXnXbXvXvXfXxXVXxXsXI.u O @ @ O   O @ g 5 @ @ 5 O O o 3 :.H.I.!.L.L.@ . X X # u._.iX_.KXrXuXJX_.FXlX' + 1 < < < 7 7 < 5 5 7 5 5 5 3 5 5 + + @ @ O # O # @ O # @ @ @ @ @ g @ 3 & 3 5 7 7 9 t p ! Q _ ] | ;.'.DXxXjXxXxXfXxXjXxXjXjXjXjXjXfXmXfXfXfXfXfXjXmXxXxXjX",
"`.sXsXfXxXnXbXvXbXnXnXbXnXbXbXbXbXbXbXnXbXbXnXnXbXbXbXbXbXbXbXbXbXnXbXnXnXbXbXVXbXbXnXvXxXvXzXSXlXK.| I @ g @ @ O O # @ # @ @ O g @ O O o ` F.L.I.P.P._.~.~ 1 # G.`.SX_.SXlX`.KXuXlXSX!.8 > & 3 7 > 7 < < 5 < 5 5 < 5 > 7 5 O O O O @ O O @ O @ O @ @ @ @ : @ g @ 3 : 5 7 9 e u I ! ^ | | { ] } '.xXdXxXdXhXmXfXfXfXfXfXfXjXfXdXfXsXdXdXfXfXjXzXxXzX",
"`.7XgXlXxXnXnXnXnXbXbXbXbXbXnXbXbXnXbXbXbXbXbXbXbXbXbXnXbXbXbXbXbXbXnXbXbXbXvXnXbXnXxXzXzXzXxX5X^ 6 0 6 5 # g X O O $ # g 3 @ 7 @ O X O o =.H.P.~.~.'.G.#.' Z ^ U.lXlX`.GXrXSXlXrXSXrXF.@ > 5 < 5 < 7 > < < > < 7 > 5 5 7 5 @ O O @ @ O O O @ O @ O @ O g & @ : @ g @ 5 7 9 e i a Y | _ [ ] { { ;.`.hXgXdXhX7XhXsXdXsXfXfXfXfXsXsXsXsXsXdXfXxXmXjXxX",
"gXsXfXfXxXxXnXnXbXnXnXbXvXbXbXbXbXbXbXbXbXvXnXnXnXvXnXnXnXnXbXbXVXnXbXnXvXbXbXbXnXVXhXzXzXzX`.I 3 6 5 5 O O @ # O g @ @ g 5 @ @ @ O O   3 <.L.!.^.^.1.= % = % % 2 rXrXFXlXlXUXrXFXrX_.~ o < 7 < < > 7 5 5 7 < < 5 5 5 : > : O + O O O @ O @ O O # + @ @ @ @ @ @ @ @ < 5 7 e i p s Q Y | / | 2.2.} U.jXgXhXdXdXdXfXfXdXfXfXjXfXfXlXfXlXfXfXjXjXxXxXjX",
"fXdXfXjXjXvXxXnXvXvXnXnXnXnXvXnXnXvXbXnXbXnXnXnXxXxXxXvXnXnXbXnXbXbXnXbXnXbXbXbXnXvXlXlXiXiX! + 3 g 5 O @ @ O O O O O 7 g @ @ - @ O O   U H.J.P._.:.= % k % % 2 2 Z lXSX-XKXuXuXFX`.I.@ < 5 : 7 8 5 < 1 > : + O $   o   $ O O @ @ @ O O @ O @ O @ @ @ @ @ - @ 3 @ : & 7 r t p a p a Y s / Q / [ ;.{ `.xXdXjXdXhXmXfXfXfXjXxXjXfXfXfXmXfXjXmXzXxXxXxX",
"jXfXmXzXxXxXxXxXvXvXzXmXjXvXxXxXvXxXxXnXnXnXvXxXjXjXzXmXxXxXcXbXbXbXvXnXnXbXbXbXbXhXzXiXzX<.o 3 g @ @ @ @ O # O O O O   O @ @ @ # O # o ` P.P.!.K.& l % % * x x v $ ,.sXFXFXuXKXrXuX` > > 5 9 7 7 @ o . . . .     O $ O @ O O @ @ O @ O O @ O O @ O @ @ @ @ g @ > 1 7 7 9 i s s p p p a s Y / / ] } K.nXxXvXfXxXxXxXxXxXxXxXxXxXmXzXmXxXmXxXxXjXzXmX",
"fXfXmXjXxXxXmXzXjXjXmXfXfXjXjXzXxXhXxXzXxXxXxXmXfXlXfXjXjXzXxXbXbXbXbXbXnXbXbXbXnXzXiXzXpXr g O @ @ @ @ O O @ O O @ O X     O @ g   g o *.~.P.!.y = % h l l v l % =   !.HXrXJXlX_._.1 > 5 1 7 8 7 5 @ @ : g 3 & @ @ @ @ @ @ @ O O @ O @ @ O @ @ @ # @ @ @ @ @ @ : 5 7 7 9 p I I a s p a a Y Y / _ [ ;.`.bXxXnXxXxXxXxXnXxXxXxXvXxXxXxXxXxXxXxXxXxXxX",
"fXgXfXfXjXmXfXfXfXfXfXfXfXfXfXfXjXjXfXfXzXmXjXfXfXfXfXfXjXmXxXbXbXnXbXnXbXbXbXbXbXhXiXSX<.o @ # @ @ @ O O @ @ @ + g g + O O O @ O @ O 3 F.~.(.,.  2 % l x l x % = $ o U rXFXFX_.zX,.o > 0 7 7 8 : 5 < 5 5 5 5 5 5 g 5 3 @ 3 5 O @ O @ O O @ @ # g @ O @ @ @ @ @ 5 7 8 7 e a I I s U s a a I Y ! ^ ^ _ K.bXnXnXbXvXxXnXvXnXnXnXnXnXxXxXxXxXxXxXxXxXxX",
"sXsXsXlXjXfXfXfXfXfXfXsXfXfXfXfXfXfXfXhXjXmXzXmXfXfXfXfXzXxXxXbXbXbXbXbXnXbXvXbXvXzXzXpXu + X @ @ @ @ O O @ O @ O O O + @ - @ O o + o U L.~.P.> # * l 2 * * * % = 2 *.D.,.FXrXuXlXr > 5 8 7 8 7 5 < < 3 : : < > @ g 5 : @ - 5 O O @ O @ O @ # @ g g @ g 5 @ + : 8 8 8 e t s I I I s s s s Y Q ! / / _ ;.gXPXvXbXbXnXnXnXbXnXnXnXnXnXxXxXxXxXxXxXmXxX",
"uXsXsXfXjXfXmXfXfXlXfXfXfXfXjXjXfXzXjXjXzXxXxXxXzXjXmXxXxXxXbXbXbXbXbXnXbXvXnXbXvXzXSXL.+ O # # @ @ O O O @ O @ + # O O O @ @ O @ + , =.H.(.` 8 2 = v l = % * = = G._.^.L.G.lXvX,.: < 7 8 7 8 < 5 7 < > 5 5 < 5 < 5 5 : 5 : + O @ O @ O @ @ @ @ @ - g @ @ @ @ 5 9 e e e i a I s s I I I Y Y ! / ! ^ ^ | I.PXbXnXnXbXnXnXvXnXvXnXnXnXnXxXxXxXjXzXmXzX",
"gXsXfXfXmXxXzXjXfXmXzXjXhXxXzXmXmXxXxXxXxXxXnXnXxXvXnXxXxXcXnXbXbXvXbXnXnXbXbXbXnXzXzX| O   @ @ @ O O # O @ @ O # # # @ @ @ @ @ O 3 4 2.!.,.U ,.N % v v % * 2 & ,._.^.tX(.=.^.rXt + < 7 r 7 7 < 5 > < < > < < : @ 7 : 5 < # O + @ @ O O O @ @ g : @ 3 - @ @ : 7 9 e e t i p s I I Y Y Q Q ! / / ^ ! _ _ 1.PXVXbXbXnXnXbXbXnXnXnXnXnXnXxXxXxXxXxXxXjX",
"fXfXfXzXxXnXxXxXxXxXxXnXvXnXvXnXnXnXbXvXnXbXbXnXcXbXnXbXnXbXbXbXbXbXnXbXnXbXbXbXbXvX`.f o # O g @ @ @ O @ O O O O O O @ g @ O O # O U H.~.4 D.!.2 2 z v % = = T ^.(._._.tXD.,.<.8 > 7 7 9 7 7 7 5 < 5 < 5 5 5 @ @ 5 5 < : + O # O @ O @ @ @ g g : : & 3 @ + 5 r e e t e t p s Y Y Y ! ! ~ ~ ^ ^ _ ! | ! ] fXbXbXbXbXvXnXbXnXnXnXnXnXvXxXxXxXxXxXxXxX",
"jXmXxXxXnXnXxXxXbXxXbXbXbXnXbXbXbXbXbXbXbXbXbXbXbXbXbXbXbXbXbXbXbXbXbXbXnXbXbXbXvXbXP.O O X g @ O O @ O O @ O O @ O @ @ @ @ @ O # 3 ` ~.` ` _.P.= 2 v z 2 % = P._.(.tXtX_.!.~.a + 8 1 9 7 0 7 < > < 5 5 : : @ < 5 > 5 5 + + @ @ @ O @ O @ @ @ g 5 @ @ g # @ 7 9 9 e t e e t a Y I Y ! ! ~ ^ ^ ' _ ] ! ^ ! '.JXnXbXnXbXnXnXbXnXnXnXvXxXxXxXxXxXxXxXxX",
"xXxXxXnXnXnXnXbXbXnXbXnXbXbXbXbXDXbXbXCXbXbXbXbXbXbXbXbXbXbXbXbXbXbXnXbXbXbXbXbXVXVX{ O   @ @ @ @ O O O @ O O O @ O @ @ @ @ O @ > , ,.D.T L.rX:.= m b z l & ,._.!._.rXrX_._.!.: < 6 8 0 7 r 0 > 5 3 3 3 7 J t.X.5 5 5 : o @ @ O @ @ # @ @ : : : > : 5 @ O @ 9 r e t t i t i p Y Q Q / ^ ^ ^ ] ] [ _ / ) Y I.HXvXbXnXnXbXvXnXvXvXnXnXxXvXxXxXxXxXxXxX",
"xXvXvXnXnXbXnXbXbXbXbXbXbXbXbXbXbXbXbXbXbXNXbXbXbXbXbXHXbXbXbXbXbXbXbXbXnXnXbXbXbXjXI o O @ @ @ @ O @ O O @ O @ # # @ g @ # + @ + U D.=.~.~._.' = z n l = R !.^./.rX_.rX^.rX:.# 8 < r 8 5 7 - 7 > : 0 < & 8.N.N.i 0 :   + O g # @ @ O + @ & > < < < > @ # 5 8 9 t i i i i p a I Y W ! ^ _ ^ | ] } ] ] ] Q x.HXbXbXnXbXnXnXnXbXnXnXnXxXnXxXxXxXxXjXxX",
"xXnXnXbXnXbXbXvXbXnXbXbXbXbXbXbXbXVXbXbXbXCXNXbXbXNXbXbXbXbXDXbXbXbXbXnXnXbXbXnXPX`.g   O @ O @ @ @ O O O @ @ O @ @ @ @ @ # @ : , T F.~.~.yX_.v % z z 2 % -.tX(._.uX_.rX(.tXt 1 7 9 7 7 8 y @ g < 9 @ 1 g J 8.0.: 7 + + < @ @ @ @ # # # @ 3 < < 5 7 > # @ 5 9 e i p p i i a I U Y Y / ^ ^ | ^ ) ] [ ] ] ! 1.bXbXbXvXbXnXbXnXnXnXnXnXnXxXxXxXxXxXxXjX",
"nXnXnXnXbXnXbXnXbXbXnXbXbXbXbXbXbXNXDXbXbXbXJXbXbXbXbXbXDXNXbXbXDXbXbXnXbXbXbXxXIXK.O O O @ # @ O @ @ @ @ O @ @ @ @ @ g @ # @ @ 1 ` G.^._._.p.2 * b l l l -._.tXtXuX_.rXtXG.+ 1 3 r 8 t & O 5 0 1 < 8 7 g X g g < : O @ @ @ O @ @ @ @ @ @ 5 7 5 5 7 5 @ : 0 e e t p p p p s I s Y Y / ^ | ^ ] ] ] ] _ ] ] :.bXbXbXbXnXbXvXnXnXnXvXnXxXxXxXxXxXxXxXxX",
"bXnXnXnXvXbXnXbXnXbXbXbXbXbXbXCXbXbXbXNXDXbXbXbXNXVXDXbXbXNXbXbXDXnXnXbXbXbXbXbXnX/ O O # g @ O @ O O @ O O @ @ @ : @ @ & # 1 , r =.L.!._.U.v n c m z v % #.tXrX`.uX^.rX_.I @ 7 8 9 7 1 ] ) 6 g - : 7 > g f 3 r e + # + @ @ @ @ g @ @ @ 3 5 5 7 7 8 > @ 5 e e e t p a a s s Y s I Y / ^ _ ] ] ] } ] ] ] ] { nXnXnXbXnXnXvXbXnXnXnXxXxXnXxXxXxXxXxXxX",
"vXnXbXnXnXnXbXnXbXbXbXbXbXbXbXbXbXDXbXbXbXbXNXbXbXbXbXbXbXbXbXDXVXbXbXbXnXnXbXIX).O O O O @ @ @ @ @ @ @ @ O @ @ @ @ @ @ > + > 1 U F.~./.^.Z v z n M n c % #.rXrX_.uX/.rXL.> 1 0 e 9 & u.AXAXU.g g r > 7 g f 7 7 : o @ : 5 5 @ @ @ @ @ @ @ 5 7 7 7 7 : @ 8 t e e e p I I s s Y Y Q Q ! ^ ^ | ] ] ] ] ] } ] ] sXPXbXbXbXvXnXnXnXvXnXvXxXnXxXxXxXxXzXxX",
"nXnXvXnXnXvXbXbXnXbXbXbXbXbXDXbXCXbXDXbXCXbXNXbXbXbXbXbXbXNXbXbXbXbXbXbXnXnXbXJX;.O # O # @ g O O @ @ O @ @ @ @ @ @ & @ # @ 1 4 =.D.G./.p.c z z S m B z z R rXaXtXrX_._.] + 0 9 9 f d ZXqX4XZXZ g 3 8 < - 7 5 6 + @ g 5 O @ + g @ g @ g & 7 7 0 8 7 : : 9 t e t u i a a I s s I Q Q Q ^ _ ] ] ] ] ] ] } } / ).JXbXnXbXnXnXnXnXnXnXnXnXvXxXxXxXxXxXxX",
"nXnXbXnXnXbXnXbXbXbXbXbXbXbXbXbXbXDXbXCXbXDXbXDXbXPXCXbXDXbXbXPXbXbXbXnXnXbXbXjXd g # O @ g O @ @ @ g @ O O @ @ @ @ 5 # + @ 1 4 =.D.G.(.R z k B S m S h k S uXrXrX'._.L.7 < 0 0 0 O 1.UXW.4XZXG @ 7 8 g 5 r 3 3 + 3 : + 6 @ - : @ @ @ @ < 7 8 8 e < : > e t t e i i p a I s s s Q W W ^ ^ ^ ] ] | ] ] [ { / K.CXbXnXvXbXnXbXnXnXnXnXxXxXxXxXxXmXxXxX",
"bXnXnXbXnXbXbXbXbXbXbXbXDXbXbXbXbXbXNXNXDXbXDXbXNXNXbXbXbXbXbXbXbXJXbXnXbXxXIX`.7 5   @ @ @ @ # @ @ # @ @ @ @ g : @ @ @ @ : > a =.G./.~.% m x S m B m v h S SX_.rX_.rXQ O 7 8 9 8 # :.ZXkXAX8Xw 3 5 7 7 < 7 7 + < > < 5 @ 3 @ @ & @ g 3 5 7 8 r 9 < @ 7 e t i t p p p p p s I s Y ! ! ^ ' ' _ _ | } ] } 2.} <.JXcXbXnXnXnXvXvXnXnXnXxXnXxXxXxXxXxXhX",
"vXnXvXbXnXbXbXnXbXnXbXbXbXbXbXVXNXJXbXbXNXVXbXNXDXbXPXbXbXDXCXbXbXNXbXbXbXvXPXI.@ - O O @ @ @ @ @ @ @ @ @ g @ @ @ @ g @ @ 3 7 I D.G.(.,.l z b M M B z l % R lXtX_.tX^.: 0 5 r 8 e : e mXAXCX$.- 0 7 7 7 7 7 < @ < < < < 3 & < g g @ @ 7 7 0 9 e 8 : : 8 9 t i t i p p p p s I I Y Y Y ^ _ ~ / ^ | ] ] [ { { :.vXVXbXnXnXbXbXnXnXnXnXnXxXxXxXxXxXxXxX",
"nXnXvXnXbXbXbXnXbXbXbXbXPXbXPXbXbXbXPXbXDXbXNXVXbXDXbXDXNXbXbXDXbXNXbXbXbXnXPX:.# @ O @ g @ @ @ @ @ @ @ @ @ : @ @ 3 @ # < > r ` L.!.^.R m v M M M B z l % #.lXrX^.uX,.o e 9 0 9 7 5 @ d G./ - - 7 7 5 5 8 : > < < < < 5 5 3 @ @ @ @ g 5 7 9 e e 8 @ 1 r 9 t t t p p p p p p s s Y Y ! ! ! Q / | | [ } { 2.;.;.gXJXbXnXbXbXnXnXnXnXvXvXvXxXxXxXxXxXxX",
"nXnXbXnXnXvXbXbXvXbXbXbXbXbXbXbXPXbXbXbXNXDXDXbXCXbXCXbXbXbXbXbXbXbXbXbXbXnXnX/ # @ O g @ @ O @ @ @ @ @ @ @ @ @ @ - @ # 7 > y =.~._.G.z M z M M n c z l % #.rXrX!.rXe 1 6 9 0 r 9 6 5 @ O - 6 0 7 5 > 5 1 @ > 5 5 < 5 > @ 5 @ - @ @ 5 7 0 t t t 7 @ 0 e r t e p p p p p p s I Y Y ! ! Y s ! _ ] ] { { [ } $.;.5XZXnXnXbXnXnXbXxXnXnXnXxXxXxXxXxXxXxX",
"bXnXbXvXbXbXbXbXbXbXbXbXbXbXPXbXbXPXbXPXbXPXPXbXbXbXDXbXCXbXbXNXbXbXNXbXbXCXgX0 @ @ O 3 @ @ @ @ @ @ @ @ @ @ @ & @ - @ 1 7 > U F.L.`.#.l c b v M M x l l % #._._._.<.+ 8 7 0 9 8 7 7 7 7 9 9 5 7 5 < 7 < : : 5 7 5 < 5 5 5 3 & g : : 5 7 r t i t 5 > e e 8 t t p i p p p p s s s I Q I I I ^ } ] ] { { [ } ;.;.).JXxXnXbXnXnXbXvXnXnXnXnXnXxXxXxXxXhX",
"vXbXnXbXbXnXnXbXbXbXbXbXbXbXbXbXbXPXPXbXPXbXPXbXNXJXbXCXJXbXVXbXbXbXDXbXbXPX).@ - @ O g @ @ @ g @ g @ @ @ g g @ 5 @ @ < < 1 ` D.!.~.z l l n v B n h l l % #.tXrX).a > 9 7 r e 8 e < 7 t 5 7 0 7 7 < 7 < : < 8 < 7 5 5 > 5 : 3 @ < 5 7 9 e i i e 1 < e e e t e i i i i p p s U s I a a I ^ _ ] ] ] { { [ } ;.;.U.NXbXbXbXnXbXbXnXvXvXnXxXxXxXvXxXxXxX",
"nXnXbXnXbXbXbXbXbXbXbXbXbXbXbXbXbXbXPXbXbXDXbXPXbXbXCXbXNXNXbXbXbXbXbXbXbXIXx.1 3 @ # 3 @ 5 @ @ @ @ g 3 : 3 @ 3 3 @ @ < > y *.G.!.-.% x c n M n v h z x % #.tXuX<.> 7 9 8 t 8 e 7 7 7 7 8 8 0 1 7 7 7 : : 7 7 < 7 < 5 5 5 5 & 3 < < 8 e t i i 8 @ 0 e e e t e t t i p p p s s s a s I ! _ _ _ | ] { { { } 2.{ <.xXbXbXnXbXbXnXnXnXnXnXnXnXxXxXxXxXxX",
"nXbXnXbXbXnXbXbXbXbXbXPXbXbXbXPXNXDXbXPXbXNXPXbXNXbXbXDXbXbXNXDXHXbXDXbXbXIX-.+ 6 @ # 5 @ @ @ - g @ @ & - @ - @ 5 @ @ 7 > U F.~.~.M l v z v m B n h l l % -.rX_.Y > e 8 r 8 8 e 8 e < 8 7 8 7 0 7 8 7 > < 7 < 7 5 7 5 5 5 5 @ g < 5 9 t i p e 7 + r e 9 t t t e e i p p p p p p i I ! ^ ! _ _ } } } 2.{ } { { :.xXbXbXnXnXbXvXnXnXnXnXxXxXnXxXxXxXxX",
"bXvXnXbXbXbXbXbXPXbXbXNXbXPXbXbXPXbXPXbXPXbXbXPXPXbXPXbXCXbXNXbXbXbXbXPXnXIX;.@ 5 + : : - @ g @ : @ @ @ @ @ @ 3 < @ @ 8 1 ` H./.p.* v v z n n n l j l z % -.lXK.1 7 9 9 e e 8 8 8 8 8 8 7 7 7 9 7 8 @ 8 7 8 7 5 7 7 7 3 5 5 : 5 < 7 e t p p 9 5 : 8 t e e e e e p t i p p p p i I ! ^ ! ^ _ _ ' [ { { { { { } { gXCXnXnXbXnXnXnXnXnXnXnXxXxXxXvXxXxX",
"nXnXbXbXbXnXbXbXbXbXDXbXbXbXbXPXbXPXbXPXbXPXPXbXbXPXbXPXDXNXbXJXbXbXbXNXnXPX] @ > @ 5 @ @ @ @ @ g @ g - g @ - - < @ 7 8 y ,.~./.E * l M n n n v l k j z % u.rX` 1 7 r e e e e 8 9 8 7 7 7 8 8 r 7 7 5 7 7 7 7 e 7 7 7 1 5 5 : 5 7 e e t p i 0 @ < 9 t e e e e e p i p p p p p s Q ! ! ! ! _ _ ] ] { { *.{ { { { gXJXbXbXbXbXvXnXnXnXnXvXnXxXxXxXxXxX",
"bXnXbXnXnXbXbXbXbXbXNXbXbXbXbXPXPXbXPXbXPXbXDXPXPXbXDXbXbXVXNXbXCXbXbXbXVXxXI 5 5 + 5 @ 5 @ g 3 < @ 3 @ : @ 5 5 & < 9 8 T D.!.~.x z z n M z n v l l l l % ^.L.5 0 9 9 e e e e 9 9 9 8 8 8 8 7 7 8 < 7 5 < 8 7 < 7 7 7 < 6 5 5 7 8 e t i p i 5 + 7 r t 9 r t i p t p p p p p p Y ! ^ ! ! ! ^ _ [ ] [ { { { 2.{ { `.IXbXbXbXnXnXbXnXnXnXvXxXvXxXxXxXxX",
"nXbXnXbXbXbXbXbXbXDXbXbXPXPXbXbXbXPXbXPXbXPXNXbXbXPXNXPXbXPXDXbXbXbXDXbXPXdX0 5 : @ 5 5 @ @ : & 3 - @ - @ 5 @ 5 : : 0 8 =.D./.p.% n z n n n v v l h z k z _.~ 1 8 e t e e e 8 e 0 9 e r 8 8 8 8 7 : e 9 9 r 8 8 7 7 5 7 5 3 5 7 8 t p p s i 5 + 0 9 t 9 9 e t i t p p s p p s s Q ! ! ! ~ _ ` ' ] [ ;.{ { $.;.} `.PXbXvXbXbXnXnXnXnXnXxXnXxXnXxXxXxX",
"bXnXvXbXbXbXbXbXbXbXbXVXbXbXbXPXPXbXPXbXNXbXbXPXPXPXPXbXbXDXCXbXNXbXbXnXIX`.5 5 @ @ 5 g @ @ g 5 - - @ @ g 3 & 5 < 1 1 U F.~.^.R j b c n n n z l l % z k Z !.7 8 9 t e e t e e 9 8 e e 7 7 r e e 7 7 9 9 5 8 r 8 7 8 7 7 5 5 5 8 e p p p s e : + 9 t e e e e e t t i p p p p U Y Y ! ! ! ~ ~ _ _ ] } { { { { ;.} '.IXbXvXbXbXnXbXvXnXnXnXvXvXvXnXxXxX",
"nXbXbXbXbXbXbXbXDXNXbXbXbXPXDXbXbXPXbXPXDXPXPXPXPXbXPXPXCXPXbXPXbXbXDXnXIX).5 0 5 : 5 @ - 5 : 5 @ 3 g @ @ - 3 g < r r T F./.U.l b z b n n B l l l 2 l % #.<.> 9 8 t t e e e 9 9 e e 8 8 9 9 8 < 0 t 7 e y 1 : 7 8 8 7 5 5 5 7 r t p p p p 7 # @ 8 e e 9 t t t t p p i t t s I Y I Q ! ! ~ _ _ _ ] ] { *.{ 2.;.} R.PXbXbXbXbXbXnXnXbXnXnXnXxXxXnXxXxX",
"nXbXbXnXbXbXbXbXbXbXNXDXbXNXNXbXPXbXPXVXPXbXPXbXPXbXbXPXDXbXPXbXCXbXbXnXIXU.3 0 : @ 7 g 3 3 g 5 5 @ : g < 5 5 : < 9 4 ` G.(.-.k v z n B n n z l % N h % -.! < q e t t t t e 9 e 8 8 8 e 9 8 8 0 r r r 7 , ` L.! 7 8 8 5 < 7 7 e t s p p t > + : 8 9 9 e t t t t i p i t p s I I I Q ! ! ! ^ ~ _ ] | { { { $.;.} K.CXbXbXnXbXbXnXbXbXnXnXxXnXxXxXxXnX",
"vXnXbXbXbXbXbXbXNXbXbXbXNXJXbXPXbXPXbXbXPXPXPXbXPXPXDXNXCXPXbXCXVXNXbXbXIX<.- 5 5 5 6 @ 5 - < 5 3 - < @ g - 3 & 0 9 U ,.~.^.R z n n z v n v l 2 z 2 k z ' 8 9 9 t t t e e e r e e e e 8 8 8 p I u u U *.~.lXUX~.> 8 8 < 7 0 r e p s p p t @ O < 8 e e 9 e 9 e e t t t t p s I s I Y ! ! ! ! _ _ ] | ] { } 2.$.{ <.bXJXDXnXbXnXbXnXvXnXnXnXxXvXnXxXxX",
"bXbXbXnXbXbXbXbXbXPXbXbXJXNXPXbXPXbXbXPXPXPXbXPXPXbXPXPXPXbXNXbXNXVXbXbXIX;.- 5 6 5 5 g g 5 5 - 5 @ g @ g 5 3 - e 0 ~ F./.~.z z n n n n c l 2 h j x j l 1 0 t t t t t e e e e e e 7 e 0 e > =._./.rXSXKXUXUXFXrXt 7 7 0 5 7 i p a s p p 9 + # 5 9 r 9 r 8 9 e e e t i p s U s s I Y ! ! ! ~ _ _ _ ` [ [ *.*.;.$.1.xXVXbXbXcXbXnXvXnXvXnXnXvXnXnXxXxX",
"bXnXbXbXbXbXbXbXbXPXbXPXbXNXbXPXbXPXbXPXbXPXbXPXPXbXPXbXPXPXJXNXbXJXbXbXbX/ 5 5 5 5 5 g 5 6 7 5 - @ 3 - - 5 g 5 e r ` D._.-.k m v n n n c l h * x x j 2 6 9 t t i t t t e e e 9 e 0 e 8 8 > H.SXrXtXuXFXKXKXKXFXT > r 7 8 e e p a s s p 0 O @ 7 8 r 9 8 9 9 e e t t p s s s s I Y Q ! ! ! ~ ^ ^ ' ' [ [ *.+.2.;.;.pXJXbXbXbXbXnXbXbXnXnXnXnXnXnXxXxX",
"bXbXbXbXbXbXDXbXbXbXPXbXNXNXDXbXPXNXNXPXPXbXPXPXPXPXbXPXbXbXPXDXbXPXbXIX5Xr 7 5 5 5 3 - 5 0 6 3 3 - @ - 5 - - 7 u y *.~.(.R z m n n n n c l 2 l j z l 1 0 t t t i i t t t 9 e e 7 e 0 t 5 > L.lXSXSXlXlXuXvXFXKXD.7 8 7 9 y e a I a p i 5 O # 7 8 8 8 8 8 e e e i i a s s p p I Y Q Y ! ~ ^ _ ^ _ ] ' [ [ { { ;.{ '.PXbXbXbXnXbXnXbXnXnXvXnXnXxXvXxX",
"nXbXnXbXbXbXbXbXPXbXbXbXDXVXNXDXNXJXPXbXDXPXPXbXbXPXPXPXPXPXDXNXPXbXbXIXU.@ 0 g 0 0 5 5 6 5 5 5 @ @ @ 3 7 - 3 9 e I F./.L.l z m v n n v x l l x z z 2 6 9 t t t p i t t e e 9 9 e 8 0 7 : U _.(.rXSXKXKXKXFXvXxXuXU < 9 8 t p a a p i e : O @ 7 8 8 7 8 e e 9 e i p a s p p p I Y Y Q ! ~ _ _ ^ _ _ | ] [ { ;.;.{ R.IXnXbXbXnXbXbXnXnXnXxXnXnXvXxXxX",
"bXbXbXbXbXbXbXVXPXbXbXCXbXPXbXPXPXPXPXbXCXDXCXPXbXPXPXPXCXNXNXNXPXbXPXPX] g 5 g f 6 5 5 6 7 5 g - 3 g - 7 3 5 e y ` G._.-.l m z n n v v x l l l z z 2 0 r e t t t i e t t 9 e r 8 9 9 @ 5 ! iXlXrXtXrXFXFXKXUXKXFX,.# t i u I a I p e 9 @ o @ 7 7 7 7 8 9 e e e t p p p i p s I Y Q ! ! ~ _ _ _ ^ _ ' ] [ { *.;.{ U.IXbXnXbXnXbXnXbXnXnXxXnXnXnXnXxX",
"bXbXbXbXbXDXbXbXbXbXPXDXPXbXPXPXbXbXPXPXPXPXbXPXPXCXPXbXPXJXNXJXbXbXIXsX9 5 - g 6 5 - 0 0 6 5 g @ g @ 3 5 - 7 i t *.~._.E z z M B n n v x * h l z l 6 0 9 i t t t t i e e e 9 9 7 9 : 7 > *._.SXzXzXuXrXuXzXJXGXSX).> t i u s s a a t 0 + O 3 7 7 7 7 8 8 9 e 9 t p p t p s Y Y Y Y ! ! ~ ~ ~ ~ ^ ` ' [ *.[ { { { H.CXVXbXbXbXbXbXnXvXnXnXnXnXnXnXnX",
"bXbXbXNXbXbXPXbXbXPXNXDXbXPXPXbXPXPXDXCXPXbXPXPXPXDXbXPXPXbXbXPXJXbXIXU.@ 5 3 g 0 6 5 0 0 0 5 g @ - @ 6 5 3 9 i a D./.~.c m z M n n B c c l l z z * 0 9 t u i t i i t e 9 9 9 9 9 7 @ 7 3 !.rX/.rXKXKXSXFXlXlXlXvXrX7 u i p s s a p e 7 O O - 7 7 5 7 7 9 9 e i p p p p a s I I Y ! ! ! ~ ~ ~ ~ _ _ ' ] [ } { { { <.nXbXbXbXbXbXbXnXnXvXnXvXvXnXnXxX",
"bXbXbXbXbXbXDXNXbXPXbXbXPXbXPXbXDXPXPXPXPXPXPXPXPXPXPXPXPXPXPXPXCXbXIX:.@ 5 - # 0 5 5 0 0 0 7 - < 5 5 7 7 g e p T G./.D.% m b n v b v v x x l c m 6 0 t t u i i i i i e e r 8 9 7 > 7 + =.rXSXiX_.tXuXFXFXKXUXJXSXrXr p a a I p p i e 7 o o - 3 5 5 7 8 8 9 9 9 s p p p I I s I Y Q ! ! ~ ~ _ ~ _ _ _ _ | } { { +.,.xXDXbXbXbXbXnXnXbXbXnXnXnXnXnXvX",
"bXbXbXbXNXbXJXbXNXbXPXbXbXPXPXPXCXPXbXPXDXCXPXCXPXPXDXPXPXPXPXbXVXPXjXd 5 5 6 g 0 f 6 0 0 0 3 @ - g 6 3 7 7 e i =.!._.R z z v M n n z v v l z m 2 q f r t i i i e y i e e 9 5 e 5 : 7 8 _.tX_.FXSXlXrXrXuXzXKXKXFXrXe y s Y a p i i e 5 O O @ 5 5 5 7 7 8 r t p p p s a a s I Y Y Y T ! ~ ! ~ _ _ _ _ _ | ] ] { ;.2.gXPXbXnXPXbXbXnXnXnXvXnXnXnXnXnX",
"bXbXbXbXbXbXNXbXbXPXbXPXDXNXbXPXbXPXPXPXPXCXJXNXPXNXDXCXPXCXDXCXbXIX`.6 0 5 g 5 q 0 0 e 0 6 5 @ g 3 5 6 g 8 p e ,.!.^.S z M v M n c n z c l z z q 9 e e t i i i e i i e 9 e e 7 & < : ' `.lXtX(.rXSXSXGXFXrXuXFXFX`.t a a I a a p e r : o O @ @ - 3 5 7 0 e i p p a s s s s I Y I Y ! ~ ~ ~ _ _ ^ _ _ | } ] } } $.{ `.IXbXbXbXnXnXbXbXnXbXnXvXnXnXnX",
"bXbXbXbXbXDXDXbXPXbXPXbXbXPXPXbXbXPXPXPXDXPXPXDXPXCXPXPXPXDXPXDXbXUXU.@ 9 6 @ 0 0 0 0 0 e - g g 3 0 5 7 : e p a L.(.G.% b n b n B v c z z z b c 1 e 9 e t t u u i i r e 9 e t > @ 8 7 _.rXrXSXlXyX(.rXlXFXKXFXGXDXrXa Y s a p i i e 9 @   O @ 5 g 5 5 7 9 e i a a a s a a s I Y I Y Q ~ ~ ~ ~ _ ^ _ _ | ] ] [ { $.{ '.PXbXbXbXnXvXnXbXnXnXnXnXnXnXxX",
"bXbXDXbXbXCXbXNXbXPXbXPXPXDXNXPXPXPXPXbXPXPXNXPXDXPXDXCXPXPXCXPXbXUX<.@ e 0 @ 7 e 0 w e 0 - g 5 g 6 5 6 5 p y ` P.(.p.k v z n M c n b c c b z c 8 e t t i i i u i i e t e e 8 : 7 7 *.FXrX(.yXrXiXrX(.!._.iXGXUXJXuXY U s s p a y e 8 @   O @ @ 5 5 5 7 9 u i d p a p a s I I Y Y Y Q ! ! ! ~ ~ _ _ ^ _ | ] } { 2.{ I.IXnXPXbXbXbXbXnXbXnXnXnXvXxXvX",
"bXbXbXbXPXbXbXDXPXbXbXPXbXPXVXPXPXPXCXPXPXbXNXPXPXCXNXPXPXDXPXbXVXIX{ 6 0 5 g 5 e w 9 e 0 - @ 3 5 6 6 g 0 p r :.~.^.R z n n m B v b b N b m v 2 9 e i t t p i u i t t t t e : < 8 1 ).lXlXzXtXtX_.rXSXSXiXtXtXvXUXvX' a I I p p i e 7 @ o O @ @ 5 @ 5 9 e e i s s a s p I Y I I I Y ! ! ~ ~ ~ _ _ ^ ^ _ _ ] [ { { } U.IXnXDXnXbXbXnXbXnXbXvXbXnXbXvX",
"bXbXbXDXbXNXNXbXbXPXPXbXbXPXCXDXPXPXDXPXPXPXPXPXDXPXPXCXPXPXPXCXCXcX| 9 0 - g 5 f w 9 9 7 3 - - 5 7 7 : r y p F.!.U.z z b n n v c b c c b m x 0 e i i t e i i i t t i e i e : 7 8 I !.L.F.P.L.!._.~.K._._.!.~.K.~.I.^ a I a i i e 9 7 @   + @ @ @ @ 5 9 i i i s I a s s I Y Y s I Q ! ~ ~ ~ _ ~ ~ ~ _ _ ' ] [ [ { [ K.IXbXbXbXbXbXbXnXnXnXnXnXnXnXnX",
"bXVXbXbXDXDXbXVXPXbXPXPXPXPXPXPXDXPXbXPXPXJXCXPXCXDXCXNXPXPXDXPXPXxXQ 9 6 5 @ 0 w f 0 q 0 - g 5 5 7 - 5 e p T G.).p.k c n n n b n n c c b m v 0 e t t i u p i p i t p t e 8 7 8 0 0 7 r 7 y 9 7 8 e 8 1 u 9 3 r 9 p t t p p p i e 9 7 @   O @ @ @ 5 7 9 e i p p a p s s I Y I I Q ! ! ~ ~ ~ ~ ~ ~ ~ _ _ _ ' ] ] { ] x.HXbXnXbXbXbXbXbXbXbXnXnXvXnXnX",
"bXbXNXbXbXNXCXDXbXPXbXPXPXbXbXPXCXPXPXPXPXPXCXPXPXPXPXJXPXCXPXbXPXgXd 0 3 g O 0 i u e 0 7 3 3 - 5 6 g 0 e y =.~./.#.k c n n n m M n z x b m x f e t i i u p i i i i i t 7 < 8 7 0 t e i i u i i p t p p u i p p I U Y Y s i p 0 r 8 5 +   O O @ @ 7 9 9 e p p p y p p s s s s I ! ! Y Y Q ! _ _ _ ^ _ _ _ _ ` ] } ] G.vXbXbXbXbXbXnXvXbXnXnXnXbXxXvX",
"bXbXPXbXbXNXbXPXbXPXDXPXbXPXCXDXPXbXCXDXCXDXCXDXPXbXPXbXJXPXNXbXIX'.7 - g @ + 0 u 9 w 0 - f 3 5 5 5 g 6 y I ,.P.U.S z z M m n n B m j N m j q t 9 p p t t s p t i t p e @ 9 7 9 9 e e t t p p p p a s s U s s s Y Y Y I Y I p e 0 7 5 O   O O O < 7 8 9 t i t t t p p p s s s Y ! Y Y ! ! ~ _ _ _ _ ! _ _ _ _ _ [ [ 1.bXJXbXbXbXbXvXbXnXbXvXnXnXvXnX",
"bXbXbXbXVXDXbXbXPXbXCXbXPXPXbXPXPXPXPXPXPXPXPXPXPXPXPXPXNXIXbXbXIXK.@ g @ + O 0 w e u 0 - - - - - 5 - f p ! ,.!.G.n m z v n m n b b B j b x 9 t y i p p i t t a i i p @ 7 8 y 7 t i t p p p p p s I s s s s a s I I I I I a t 9 0 7 3 O   O @ O < 8 9 r t t e e i i e e t t i I ~ ~ ! ! ~ ~ ~ ^ ! ! ! _ ^ _ ] _ [ [ :.nXNXbXbXbXbXbXvXbXnXbXnXbXbXnX",
"bXbXbXPXbXPXbXPXbXPXNXPXJXNXPXPXPXPXCXPXPXPXPXPXPXPXPXPXNXPXDXPXnXQ $ @ @ O @ 0 i e u 0 5 - 5 f 7 5 - 5 y ` D.!.@.z m z B M m v B b b m m 2 0 t p t i p i t t s p p 8 : 8 9 e r t p p i p p s p p s p p p p p s s U s s s p t 9 9 5 @     O @ # < 7 9 e e e e e r 9 e e t e e p ~ ~ ~ ~ ! ! ! ! ! ! ! ~ ! _ ' ' [ [ ;.xXbXbXbXbXbXbXnXbXbXnXbXvXnXnX",
"bXPXbXPXbXbXPXbXPXbXNXJXNXNXbXPXbXPXDXPXPXPXPXPXPXbXPXPXbXPXPXIX'.O O O O O O 6 d f w q 3 5 5 5 5 7 g 0 p =.G.!.R z m m b M n n m c b m c q f t i p p t p p p i p e > 7 0 t 7 t i i p p p s s s a s s p p s p s Y s s s p i t 9 8 7 @       O @ : 5 9 e t e 8 t 7 9 t p e 8 e p Q ! ! ! Q Y ! ~ ~ ! ! ! ! _ _ _ ] | { xXNXbXbXbXbXnXbXvXnXbXnXnXbXnX",
"bXbXPXbXbXPXbXCXbXPXbXPXPXPXbXPXPXPXDXPXPXPXPXPXPXPXPXbXPXNXPXIXK.$ 5 # O O X 5 w f i 0 - 5 5 3 3 - 5 i W :.G.U.n z b n n n B b m c b m c 9 e i p p p t t p i t y : 5 9 t e e p p a s p p s s s a s a a s p p s p s s p p t e r 7 5 @ o . O O O @ 7 t t e 8 8 9 t e t e 8 8 p I Y Y ! ! ! Y ! ~ ~ ! ! ~ ~ _ _ _ | ] [ fXPXbXnXDXbXbXvXbXbXnXnXbXbXnX",
"bXbXPXbXbXPXPXDXPXbXbXPXbXPXPXPXPXPXPXCXPXPXPXPXPXPXPXPXCXJXbXIX:.O 7 @ O O o 5 u w i 0 3 3 - - 5 5 5 u W ,.L.-.l b b n n b M b b B b b q 9 e i p p p p t t p s 0 @ t r t t t t p a s s s s s s s s s a s p p p s s I s s p t e 7 < +       @ O > 7 e 9 9 9 r 9 t 8 8 8 9 t I Y Y Y Q Y Y Y Y ! ! ! ! ! ^ ^ _ _ _ ] } gXPXnXbXbXbXbXnXnXbXvXbXnXnXnX",
"bXPXbXbXbXbXPXbXbXPXPXPXbXPXbXPXDXPXPXbXCXPXPXPXPXPXPXbXPXPXbXIXH.X > 3 g # # 5 u u i 0 - 5 - 3 - 6 6 u U F.L.' z b b n m b n n b b b b q 0 t p t p i i p t p i + < e 9 7 e e e i p p p p s s p a s a a s p p s s I s s a p t e 7 < O       + # : 7 9 8 9 e e e 7 7 8 e t I Y Y I I I Y Y I Y Q ! ! ! ~ ^ _ _ _ ] _ | `.PXbXbXbXnXbXnXbXnXbXnXvXnXnX",
"bXbXbXPXPXbXbXPXPXbXPXbXCXDXPXPXCXPXPXPXDXPXPXPXPXPXbXPXPXbXbXIX).+ + @ @ @ g 0 w e i 0 3 - - 3 g 5 9 u W ,.U.S z z B n n n m B m b m b 9 9 y p p p p t i s t > # e t e t e t t i p p y t t i t t t t t t t t p t i t t e e e e 9 7 O     . # O : 8 e 7 r i e 7 8 8 e i t I Y I I I I Y Y Y Y ! ! ! ! ~ ^ ^ ^ ^ ] ] _ `.PXnXJXbXbXbXbXnXbXnXbXnXnXnX",
"bXbXPXbXbXbXPXDXPXbXPXbXPXPXPXPXPXPXPXPXbXPXPXDXJXNXCXNXPXDXCXIXnXi : : @ # O 6 e u w f g 5 g @ 7 & t y T D.<.z n b z M n n n n m m n q 7 t u p p i i i t s 1 + 7 e t t t i p p p I s I U s a s a a a a a a a U p i t t t t e 9 8 > + $     O # < 7 i i y e 9 9 e e e i a I a I s I I Y Y Y ! ! ! ! ! ! ~ ^ ^ _ | | | ).IXxXbXbXnXbXnXbXbXbXvXnXnXnX",
"PXbXbXbXPXbXbXNXbXbXPXPXPXbXbXPXPXbXPXPXPXPXPXCXPXCXPXbXDXCXbXPXxXi 5 7 5 @ g 9 e i i 6 g - 3 - 5 < t U ' D.1.k b z n n B n b m m m n q 9 p u p p p i i e i 1 # 7 r t t t p p s p a s s I s p s a s a s a a p s s p t i t t e e 0 < # $ $   o # 5 8 p i i e 9 e t e e i I I I a I I I Y Y Y ! ! ! ! ! Q ~ ~ ~ _ ^ | ^ ).IXxXbXnXbXbXbXvXnXnXnXnXnXnX"
};
